Ground_Control_Cinestyle-Rec709/Additional_Formats/GC_Cinestyle-Rec709.3dl
# Converted by Briz LUT Converter
0 128 256 384 512 640 768 896 1023
0 0 0
0 0 242
0 0 868
0 0 1707
0 0 2637
0 0 3585
0 0 4095
0 0 4095
0 0 4095
0 194 0
0 179 180
0 154 757
0 109 1565
0 53 2467
0 11 3407
0 5 4077
0 0 4095
0 0 4095
0 572 0
0 563 20
0 552 552
0 520 1375
0 482 2308
0 442 3282
0 417 4034
0 398 4095
0 379 4095
0 1180 0
0 1183 0
0 1188 349
0 1168 1168
0 1139 2106
0 1106 3097
0 1083 3949
0 1070 4095
0 1055 4095
0 1905 0
0 1912 0
0 1924 166
0 1912 950
0 1887 1887
0 1858 2889
0 1834 3828
0 1828 4095
0 1818 4095
0 2694 0
0 2706 0
0 2720 36
0 2717 735
0 2698 1666
0 2672 2671
0 2646 3674
0 2642 4095
0 2635 4095
0 3524 0
0 3538 0
0 3553 0
0 3558 539
0 3542 1458
0 3520 2465
0 3495 3495
0 3490 4095
0 3486 4095
0 4095 0
0 4095 0
0 4095 0
0 4095 539
0 4095 1429
0 4095 2428
0 4095 3461
0 4095 4095
0 4095 4095
0 4095 0
0 4095 0
0 4095 9
0 4095 562
0 4095 1403
0 4095 2395
0 4095 3435
0 4095 4095
0 4095 4095
244 0 0
240 0 240
222 0 857
186 0 1689
142 0 2611
92 0 3555
64 0 4095
33 0 4095
19 0 4095
154 154 0
132 132 132
106 106 683
63 63 1490
15 15 2399
5 5 3348
0 1 4051
0 0 4095
0 0 4095
19 558 0
20 555 20
19 550 550
9 522 1374
6 487 2307
3 450 3286
1 428 4046
1 410 4095
0 392 4095
0 1199 0
0 1203 0
0 1210 374
0 1191 1192
0 1163 2129
0 1131 3120
0 1109 3974
0 1099 4095
0 1085 4095
0 1937 0
0 1944 0
0 1958 205
0 1947 988
0 1924 1924
0 1896 2924
0 1872 3870
0 1867 4095
0 1858 4095
0 2738 0
0 2749 0
0 2763 59
0 2761 782
0 2742 1713
0 2718 2718
0 2693 3721
0 2690 4095
0 2684 4095
0 3574 0
0 3588 0
0 3602 7
0 3608 593
0 3593 1513
0 3570 2517
0 3546 3546
0 3542 4095
0 3538 4095
0 4095 0
0 4095 0
0 4095 25
0 4095 596
0 4095 1488
0 4095 2486
0 4095 3519
0 4095 4095
0 4095 4095
0 4095 0
0 4095 0
0 4095 38
0 4095 619
0 4095 1460
0 4095 2451
0 4095 3490
0 4095 4095
0 4095 4095
834 0 0
821 0 189
794 0 794
748 0 1621
693 0 2541
633 0 3489
590 0 4094
541 0 4095
493 0 4095
658 83 0
638 71 71
615 54 615
570 19 1427
517 8 2344
460 2 3301
423 0 4032
391 0 4095
360 0 4095
554 554 0
555 555 25
556 555 556
533 534 1383
503 503 2319
469 469 3302
450 450 4067
437 437 4095
423 422 4095
393 1229 0
401 1236 0
411 1245 411
398 1228 1229
376 1203 2168
352 1172 3162
340 1153 4010
338 1143 4095
336 1131 4095
231 1985 0
242 1994 0
259 2008 259
255 2000 1040
241 1978 1978
223 1950 2979
210 1927 3926
217 1922 4095
220 1914 4095
83 2793 0
98 2807 0
115 2821 115
120 2819 842
110 2801 1772
95 2777 2777
82 2752 3780
90 2749 4095
95 2743 4095
19 3633 0
24 3646 0
29 3662 26
31 3669 655
28 3653 1574
24 3631 2579
20 3607 3606
21 3603 4095
22 3598 4095
38 4095 0
42 4095 0
47 4095 45
50 4095 658
45 4095 1551
39 4095 2549
31 4095 3581
29 4095 4095
28 4095 4095
50 4095 0
54 4095 0
62 4095 62
71 4095 676
62 4095 1519
47 4095 2506
36 4095 3537
26 4095 4095
19 4095 4095
1582 0 0
1564 0 79
1535 0 664
1484 0 1484
1419 0 2395
1348 0 3340
1299 0 4033
1254 0 4095
1211 0 4095
1386 8 0
1370 7 6
1352 6 498
1311 3 1311
1263 0 2234
1213 0 3203
1179 0 3980
1151 0 4095
1122 0 4095
1346 496 0
1347 499 7
1350 503 504
1328 483 1328
1297 454 2266
1263 423 3252
1241 407 4042
1225 396 4095
1206 385 4095
1193 1193 0
1200 1200 0
1211 1211 386
1198 1198 1198
1175 1174 2138
1147 1147 3135
1128 1128 4008
1122 1122 4095
1113 1113 4095
1012 1971 0
1023 1980 0
1038 1997 259
1033 1990 1033
1015 1970 1970
992 1946 2975
971 1925 3937
971 1923 4095
968 1918 4095
823 2802 0
837 2814 0
855 2831 139
856 2832 856
841 2817 1786
821 2793 2795
800 2771 3804
801 2772 4095
799 2766 4095
647 3661 0
663 3675 0
680 3692 36
687 3699 687
674 3685 1606
654 3665 2612
633 3642 3642
632 3639 4095
632 3635 4095
656 4095 0
670 4095 0
688 4095 79
697 4095 698
684 4095 1587
663 4095 2584
638 4095 3617
629 4095 4095
626 4095 4095
676 4095 0
690 4095 0
702 4095 97
703 4095 703
682 4095 1528
643 4095 2497
596 4095 3512
558 4095 4095
531 4095 4095
2398 0 0
2369 0 3
2333 0 492
2278 0 1302
2219 0 2219
2157 0 3178
2112 0 3937
2072 0 4095
2035 0 4095
2214 0 0
2203 0 0
2194 0 376
2161 0 1192
2119 0 2119
2074 0 3096
2043 0 3906
2018 0 4095
1993 0 4095
2232 420 0
2235 425 1
2240 432 432
2220 414 1252
2190 388 2190
2155 360 3179
2131 343 4004
2114 334 4095
2095 325 4095
2096 1132 0
2104 1141 0
2117 1155 341
2105 1142 1143
2082 1121 2082
2055 1095 3082
2035 1076 3989
2030 1072 4095
2021 1064 4095
1923 1923 0
1935 1935 0
1952 1952 232
1947 1946 992
1929 1928 1929
1906 1907 2934
1884 1883 3914
1884 1884 4095
1879 1879 4095
1735 2765 0
1749 2779 0
1767 2796 122
1770 2799 826
1754 2783 1754
1733 2762 2762
1711 2739 3779
1710 2739 4095
1708 2736 4095
1551 3633 0
1567 3647 0
1584 3664 32
1592 3672 663
1578 3659 1578
1558 3639 2584
1534 3617 3616
1530 3613 4095
1527 3611 4095
1533 4095 0
1548 4095 0
1566 4095 58
1573 4095 674
1559 4095 1559
1533 4095 2555
1504 4095 3588
1488 4095 4095
1478 4095 4095
1494 4095 0
1494 4095 0
1489 4095 45
1471 4095 632
1435 4095 1435
1384 4095 2397
1331 4095 3412
1292 4095 4095
1272 4095 4095
3221 0 0
3197 0 0
3175 0 322
3130 0 1133
3077 0 2054
3022 0 3022
2980 0 3816
2945 0 4095
2913 0 4095
3101 0 0
3095 0 0
3093 0 263
3066 0 1075
3029 0 2005
2988 0 2988
2957 0 3834
2937 0 4095
2915 0 4095
3163 339 0
3167 344 0
3175 355 355
3156 341 1167
3127 317 2103
3093 290 3093
3067 270 3965
3052 266 4095
3035 259 4095
3052 1063 0
3061 1074 0
3075 1088 291
3065 1079 1079
3044 1059 2017
3019 1034 3019
2998 1013 3958
2994 1010 4095
2986 1004 4095
2894 1865 0
2906 1877 0
2922 1894 196
2921 1892 940
2903 1875 1874
2881 1852 2881
2859 1830 3876
2859 1830 4095
2855 1825 4095
2714 2714 0
2727 2728 0
2745 2745 92
2749 2750 779
2735 2735 1706
2713 2712 2713
2692 2692 3737
2690 2690 4095
2687 2687 4095
2530 3585 0
2544 3599 0
2562 3617 23
2570 3626 620
2557 3613 1531
2536 3594 2536
2513 3571 3570
2507 3567 4095
2504 3564 4095
2498 4095 0
2511 4095 0
2529 4095 33
2537 4095 626
2521 4095 1500
2494 4095 2493
2459 4095 3526
2434 4095 4095
2413 4095 4095
2389 4095 0
2375 4095 0
2363 4095 5
2346 4095 507
2320 4095 1308
2281 4095 2280
2236 4095 3306
2198 4095 4095
2176 4095 4095
3905 0 0
3892 0 0
3882 0 214
3849 0 1017
3812 0 1938
3774 0 2912
3749 0 3750
3735 0 4095
3720 0 4095
3872 0 0
3873 0 0
3880 0 201
3864 0 1000
3840 0 1927
3812 0 2911
3794 0 3794
3788 0 4095
3780 0 4095
3980 296 0
3984 302 0
3993 312 314
3987 300 1108
3973 275 2039
3951 245 3030
3934 224 3934
3932 219 4095
3926 209 4095
3948 1016 0
3959 1026 0
3975 1041 264
3974 1032 1032
3963 1011 1967
3946 985 2968
3932 960 3931
3938 957 4095
3939 950 4095
3852 1812 0
3865 1825 0
3883 1842 169
3886 1841 893
3874 1823 1824
3855 1801 2829
3838 1778 3837
3841 1776 4095
3840 1771 4095
3704 2659 0
3717 2674 0
3736 2691 60
3742 2698 732
3729 2682 1654
3710 2662 2662
3690 2638 3689
3689 2637 4095
3688 2634 4095
3532 3532 0
3545 3546 0
3563 3563 13
3572 3574 572
3560 3560 1477
3540 3540 2481
3517 3516 3517
3511 3511 4095
3508 3508 4095
3491 4095 0
3503 4095 0
3519 4095 17
3522 4095 562
3500 4095 1414
3462 4095 2395
3414 4095 3414
3374 4095 4095
3341 4095 4095
3305 4095 0
3303 4095 0
3304 4095 0
3295 4095 405
3271 4095 1192
3232 4095 2161
3188 4095 3188
3149 4095 4095
3128 4095 4095
4095 0 0
4095 0 0
4095 0 138
4095 0 933
4095 0 1859
4095 0 2841
4095 0 3723
4095 0 4095
4095 0 4095
4095 0 0
4095 0 0
4095 0 172
4095 0 954
4095 0 1883
4095 0 2873
4095 0 3792
4095 0 4095
4095 0 4095
4095 284 0
4095 293 0
4095 305 306
4095 295 1082
4095 273 2011
4095 246 3004
4095 225 3942
4095 221 4095
4095 215 4095
4095 1016 0
4095 1027 0
4095 1042 290
4095 1038 1038
4095 1018 1971
4095 994 2973
4095 969 3960
4095 966 4095
4095 959 4095
4095 1822 0
4095 1835 0
4095 1853 210
4095 1854 910
4095 1837 1837
4095 1813 2843
4095 1789 3858
4095 1786 4095
4095 1781 4095
4095 2668 0
4095 2683 0
4095 2700 92
4095 2706 748
4095 2692 1664
4095 2671 2670
4095 2646 3700
4095 2640 4095
4095 2635 4095
4095 3530 0
4095 3543 0
4095 3561 18
4095 3571 578
4095 3557 1473
4095 3537 2474
4095 3511 3511
4095 3500 4095
4095 3495 4095
4095 4095 0
4095 4095 0
4095 4095 5
4095 4095 502
4095 4095 1323
4095 4095 2289
4095 4095 3300
4095 4095 4095
4095 4095 4095
4095 4095 0
4095 4095 0
4095 4095 0
4095 4095 325
4095 4095 1092
4095 4095 2057
4076 4095 3082
4048 4095 4048
4037 4095 4095
4095 0 0
4095 0 0
4095 0 90
4095 0 868
4095 0 1795
4095 0 2783
4095 0 3706
4095 0 4095
4095 0 4095
4095 0 0
4095 0 0
4095 0 149
4095 0 910
4095 0 1838
4095 0 2830
4095 0 3783
4095 0 4095
4095 0 4095
4095 271 0
4095 281 0
4095 294 294
4095 287 1048
4095 267 1976
4095 242 2971
4095 219 3937
4095 217 4095
4095 212 4095
4095 1007 0
4095 1020 0
4095 1036 309
4095 1033 1033
4095 1015 1963
4095 991 2967
4095 966 3963
4095 964 4095
4095 957 4095
4095 1820 0
4095 1834 0
4095 1852 236
4095 1855 916
4095 1839 1839
4095 1817 2846
4095 1792 3869
4095 1788 4095
4095 1784 4095
4095 2671 0
4095 2686 0
4095 2702 119
4095 2711 760
4095 2697 1670
4095 2675 2675
4095 2650 3708
4095 2643 4095
4095 2638 4095
4095 3534 0
4095 3548 0
4095 3565 24
4095 3574 596
4095 3563 1478
4095 3540 2476
4095 3512 3512
4095 3498 4095
4095 3487 4095
4095 4095 0
4095 4095 0
4095 4095 0
4095 4095 430
4095 4095 1228
4095 4095 2197
4095 4095 3217
4095 4095 4095
4095 4092 4095
4095 4095 0
4095 4095 0
4095 4095 0
4095 4095 297
4095 4095 1044
4095 4095 2007
4095 4095 3034
4095 4095 4023
4095 4095 4095
