Ground_Control_Cinestyle-Rec709/Additional_Formats/GC_Cinestyle-Rec709.3dl
# Converted by Briz LUT Converter
0 64 128 192 256 320 384 448 512 576 640 704 768 832 896 960 1023
0 0 0
0 0 41
0 0 242
0 0 508
0 0 868
0 0 1272
0 0 1707
0 0 2165
0 0 2637
0 0 3115
0 0 3585
0 0 3928
0 0 4095
0 0 4095
0 0 4095
0 0 4095
0 0 4095
0 15 0
0 9 10
0 9 201
0 3 446
0 1 794
0 1 1187
0 1 1613
0 0 2063
0 0 2529
0 0 3002
0 0 3474
0 0 3850
0 0 4094
0 0 4095
0 0 4095
0 0 4095
0 0 4095
0 194 0
0 183 0
0 179 180
0 171 414
0 154 757
0 133 1145
0 109 1565
0 82 2009
0 53 2467
0 25 2936
0 11 3407
0 8 3809
0 5 4077
0 2 4095
0 0 4095
0 0 4095
0 0 4095
0 353 0
0 340 1
0 336 111
0 330 331
0 315 669
0 297 1060
0 275 1484
0 253 1934
0 229 2403
0 205 2880
0 182 3360
0 163 3786
0 153 4062
0 140 4095
0 127 4095
0 115 4095
0 103 4095
0 572 0
0 563 0
0 563 20
0 562 225
0 552 552
0 538 946
0 520 1375
0 501 1832
0 482 2308
0 462 2793
0 442 3282
0 424 3739
0 417 4034
0 407 4095
0 398 4095
0 387 4095
0 379 4095
0 854 0
0 849 0
0 852 1
0 856 136
0 852 448
0 841 841
0 828 1272
0 813 1731
0 796 2209
0 777 2699
0 760 3193
0 742 3670
0 737 3994
0 729 4095
0 721 4095
0 712 4095
0 704 4095
0 1180 0
0 1178 0
0 1183 0
0 1189 58
0 1188 349
0 1180 738
0 1168 1168
0 1154 1626
0 1139 2106
0 1122 2598
0 1106 3097
0 1089 3587
0 1083 3949
0 1077 4095
0 1070 4095
0 1063 4095
0 1055 4095
0 1533 0
0 1531 0
0 1538 0
0 1545 19
0 1547 255
0 1540 632
0 1530 1060
0 1518 1518
0 1504 1998
0 1489 2493
0 1472 2995
0 1457 3494
0 1449 3892
0 1446 4095
0 1440 4095
0 1434 4095
0 1428 4095
0 1905 0
0 1904 0
0 1912 0
0 1920 0
0 1924 166
0 1920 525
0 1912 950
0 1900 1407
0 1887 1887
0 1873 2384
0 1858 2889
0 1844 3392
0 1834 3828
0 1832 4093
0 1828 4095
0 1822 4095
0 1818 4095
0 2293 0
0 2293 0
0 2303 0
0 2310 0
0 2316 84
0 2315 420
0 2308 841
0 2298 1297
0 2287 1776
0 2273 2273
0 2259 2780
0 2245 3287
0 2234 3756
0 2233 4053
0 2229 4095
0 2225 4095
0 2221 4095
0 2694 0
0 2696 0
0 2706 0
0 2714 0
0 2720 36
0 2722 322
0 2717 735
0 2708 1186
0 2698 1666
0 2685 2163
0 2672 2671
0 2658 3183
0 2646 3674
0 2646 4004
0 2642 4095
0 2639 4095
0 2635 4095
0 3107 0
0 3108 0
0 3119 0
0 3128 0
0 3134 8
0 3138 236
0 3134 633
0 3127 1082
0 3117 1559
0 3105 2056
0 3093 2566
0 3080 3080
0 3068 3585
0 3065 3964
0 3064 4095
0 3060 4095
0 3058 4095
0 3524 0
0 3527 0
0 3538 0
0 3548 0
0 3553 0
0 3559 165
0 3558 539
0 3551 984
0 3542 1458
0 3531 1955
0 3520 2465
0 3507 2981
0 3495 3495
0 3490 3913
0 3490 4095
0 3488 4095
0 3486 4095
0 3921 0
0 3925 0
0 3936 0
0 3946 0
0 3952 0
0 3959 169
0 3961 516
0 3956 950
0 3949 1419
0 3941 1910
0 3931 2418
0 3920 2931
0 3909 3445
0 3903 3899
0 3906 4095
0 3905 4095
0 3905 4095
0 4095 0
0 4095 0
0 4095 0
0 4095 0
0 4095 0
0 4095 216
0 4095 539
0 4095 963
0 4095 1429
0 4095 1920
0 4095 2428
0 4095 2945
0 4095 3461
0 4095 3949
0 4095 4095
0 4095 4095
0 4095 4095
0 4095 0
0 4095 0
0 4095 0
0 4095 0
0 4095 5
0 4095 240
0 4095 549
0 4095 954
0 4095 1417
0 4095 1905
0 4095 2412
0 4095 2930
0 4095 3450
0 4095 3953
0 4095 4095
0 4095 4095
0 4095 4095
0 4095 0
0 4095 0
0 4095 0
0 4095 0
0 4095 9
0 4095 258
0 4095 562
0 4095 945
0 4095 1403
0 4095 1889
0 4095 2395
0 4095 2913
0 4095 3435
0 4095 3947
0 4095 4095
0 4095 4095
0 4095 4095
39 0 0
36 0 36
38 0 234
34 0 494
23 0 852
9 0 1254
6 0 1686
6 0 2142
4 0 2612
2 0 3088
0 0 3560
0 0 3910
0 0 4095
0 0 4095
0 0 4095
0 0 4095
0 0 4095
1 0 0
0 0 0
0 0 176
0 0 413
0 0 758
0 0 1150
0 0 1575
0 0 2023
0 0 2489
0 0 2960
0 0 3432
0 0 3823
0 0 4089
0 0 4095
0 0 4095
0 0 4095
0 0 4095
0 166 0
0 155 0
0 150 150
0 141 373
0 122 709
0 98 1091
0 74 1509
0 48 1952
0 22 2414
0 9 2887
0 6 3360
0 3 3779
0 1 4056
0 0 4095
0 0 4095
0 0 4095
0 0 4095
0 321 0
0 311 0
0 308 90
0 303 304
0 290 637
0 273 1027
0 252 1452
0 231 1902
0 209 2370
0 186 2849
0 163 3330
0 144 3768
0 135 4051
0 124 4095
0 113 4095
0 102 4095
0 91 4095
0 552 0
0 543 0
0 545 12
0 545 215
0 537 538
0 525 931
0 509 1361
0 491 1817
0 473 2293
0 452 2779
0 433 3270
0 417 3734
0 410 4033
0 402 4095
0 393 4095
0 384 4095
0 374 4095
0 845 0
0 840 0
0 845 1
0 850 138
0 845 443
0 836 837
0 823 1267
0 808 1724
0 792 2202
0 774 2693
0 757 3187
0 740 3668
0 734 3995
0 727 4095
0 719 4095
0 712 4095
0 704 4095
0 1177 0
0 1175 0
0 1180 0
0 1187 64
0 1185 351
0 1178 739
0 1167 1167
0 1154 1625
0 1139 2105
0 1122 2597
0 1106 3096
0 1090 3589
0 1084 3957
0 1079 4095
0 1071 4095
0 1065 4095
0 1058 4095
0 1533 0
0 1531 0
0 1539 0
0 1545 20
0 1548 262
0 1542 636
0 1533 1063
0 1520 1521
0 1507 2001
0 1493 2496
0 1476 2997
0 1461 3498
0 1453 3903
0 1449 4095
0 1445 4095
0 1439 4095
0 1433 4095
0 1909 0
0 1908 0
0 1916 0
0 1923 3
0 1928 177
0 1926 532
0 1917 957
0 1907 1413
0 1894 1894
0 1880 2389
0 1866 2894
0 1851 3398
0 1841 3841
0 1838 4095
0 1834 4095
0 1830 4095
0 1825 4095
0 2300 0
0 2299 0
0 2309 0
0 2317 0
0 2323 98
0 2323 431
0 2316 851
0 2306 1305
0 2295 1784
0 2282 2282
0 2268 2788
0 2254 3296
0 2243 3770
0 2243 4068
0 2240 4095
0 2235 4095
0 2231 4095
0 2704 0
0 2705 0
0 2715 0
0 2723 0
0 2728 40
0 2732 336
0 2727 747
0 2719 1198
0 2708 1676
0 2696 2174
0 2683 2683
0 2669 3193
0 2656 3688
0 2657 4015
0 2655 4095
0 2650 4095
0 2647 4095
0 3117 0
0 3120 0
0 3129 0
0 3138 0
0 3146 15
0 3149 253
0 3146 647
0 3138 1096
0 3129 1573
0 3117 2069
0 3105 2579
0 3092 3092
0 3080 3599
0 3076 3976
0 3077 4095
0 3073 4095
0 3071 4095
0 3538 0
0 3539 0
0 3550 0
0 3559 0
0 3566 0
0 3572 184
0 3571 555
0 3564 999
0 3556 1473
0 3545 1968
0 3533 2479
0 3522 2994
0 3508 3508
0 3504 3932
0 3504 4095
0 3502 4095
0 3499 4095
0 3938 0
0 3940 0
0 3952 0
0 3960 0
0 3968 1
0 3971 185
0 3973 529
0 3970 964
0 3964 1431
0 3956 1922
0 3946 2428
0 3936 2943
0 3925 3455
0 3919 3915
0 3920 4095
0 3922 4095
0 3920 4095
0 4095 0
0 4095 0
0 4095 0
0 4095 0
0 4095 10
0 4095 235
0 4095 555
0 4095 978
0 4095 1444
0 4095 1934
0 4095 2442
0 4095 2959
0 4095 3476
0 4095 3963
0 4095 4095
0 4095 4095
0 4095 4095
0 4095 0
0 4095 0
0 4095 0
0 4095 0
0 4095 16
0 4095 259
0 4095 567
0 4095 970
0 4095 1432
0 4095 1920
0 4095 2426
0 4095 2943
0 4095 3464
0 4095 3959
0 4095 4095
0 4095 4095
0 4095 4095
0 4095 0
0 4095 0
0 4095 0
0 4095 0
0 4095 21
0 4095 277
0 4095 581
0 4095 960
0 4095 1417
0 4095 1902
0 4095 2409
0 4095 2926
0 4095 3448
0 4095 3950
0 4095 4095
0 4095 4095
0 4095 4095
244 0 0
239 0 43
240 0 240
235 0 500
222 0 857
205 0 1258
186 0 1689
165 0 2143
142 0 2611
118 0 3086
92 0 3555
77 0 3906
64 0 4095
49 0 4095
33 0 4095
24 0 4095
19 0 4095
183 0 0
173 0 0
171 0 171
164 0 405
149 0 750
129 0 1141
107 0 1563
82 0 2010
56 0 2473
29 0 2943
11 0 3412
7 0 3808
4 0 4076
1 0 4095
0 0 4095
0 0 4095
0 0 4095
154 154 0
140 140 0
132 132 132
123 123 349
106 106 683
85 85 1069
63 63 1490
39 39 1935
15 15 2399
8 8 2872
5 5 3348
2 3 3772
0 1 4051
0 0 4095
0 0 4095
0 0 4095
0 0 4095
96 316 0
89 306 0
87 304 87
85 301 302
74 289 634
59 273 1024
41 254 1450
23 233 1901
10 212 2370
8 190 2849
5 168 3332
3 151 3773
2 143 4057
1 134 4095
0 123 4095
0 113 4095
0 103 4095
19 558 0
18 551 0
20 555 20
23 557 228
19 550 550
12 538 944
9 522 1374
7 505 1831
6 487 2307
4 469 2794
3 450 3286
2 433 3752
1 428 4046
1 419 4095
1 410 4095
0 402 4095
0 392 4095
3 862 0
3 858 0
4 863 3
4 868 157
4 865 463
4 856 856
3 843 1286
2 828 1744
1 812 2222
0 795 2714
0 778 3208
0 762 3689
0 756 4010
0 749 4095
0 742 4095
0 734 4095
0 726 4095
0 1199 0
0 1195 0
0 1203 0
0 1208 87
0 1210 374
0 1201 761
0 1191 1192
0 1178 1649
0 1163 2129
0 1147 2622
0 1131 3120
0 1114 3613
0 1109 3974
0 1104 4095
0 1099 4095
0 1092 4095
0 1085 4095
0 1558 0
0 1557 0
0 1564 0
0 1571 25
0 1575 287
0 1569 663
0 1560 1090
0 1548 1548
0 1534 2029
0 1519 2524
0 1505 3025
0 1490 3525
0 1483 3928
0 1479 4095
0 1474 4095
0 1469 4095
0 1463 4095
0 1937 0
0 1935 0
0 1944 0
0 1953 7
0 1958 205
0 1955 562
0 1947 988
0 1936 1444
0 1924 1924
0 1911 2420
0 1896 2924
0 1882 3429
0 1872 3870
0 1871 4095
0 1867 4095
0 1863 4095
0 1858 4095
0 2331 0
0 2331 0
0 2340 0
0 2349 0
0 2354 128
0 2355 463
0 2349 884
0 2339 1338
0 2327 1819
0 2315 2315
0 2301 2821
0 2288 3329
0 2277 3801
0 2277 4088
0 2274 4095
0 2269 4095
0 2265 4095
0 2738 0
0 2738 0
0 2749 0
0 2758 0
0 2763 59
0 2766 369
0 2761 782
0 2753 1234
0 2742 1713
0 2731 2209
0 2718 2718
0 2705 3229
0 2693 3721
0 2693 4041
0 2690 4095
0 2687 4095
0 2684 4095
0 3152 0
0 3154 0
0 3165 0
0 3175 0
0 3180 27
0 3186 287
0 3183 684
0 3175 1133
0 3166 1609
0 3153 2107
0 3143 2616
0 3129 3129
0 3118 3634
0 3115 3998
0 3113 4095
0 3111 4095
0 3109 4095
0 3574 0
0 3577 0
0 3588 0
0 3597 0
0 3602 7
0 3608 219
0 3608 593
0 3602 1038
0 3593 1513
0 3583 2008
0 3570 2517
0 3559 3033
0 3546 3546
0 3542 3963
0 3542 4095
0 3540 4095
0 3538 4095
0 3972 0
0 3973 0
0 3980 0
0 3986 0
0 3992 10
0 3997 224
0 3997 571
0 3994 1007
0 3989 1476
0 3983 1967
0 3975 2472
0 3968 2986
0 3960 3499
0 3955 3953
0 3957 4095
0 3957 4095
0 3956 4095
0 4095 0
0 4095 0
0 4095 0
0 4095 0
0 4095 25
0 4095 273
0 4095 596
0 4095 1021
0 4095 1488
0 4095 1978
0 4095 2486
0 4095 3001
0 4095 3519
0 4095 3993
0 4095 4095
0 4095 4095
0 4095 4095
0 4095 0
0 4095 0
0 4095 0
0 4095 0
0 4095 32
0 4095 297
0 4095 607
0 4095 1014
0 4095 1475
0 4095 1964
0 4095 2470
0 4095 2988
0 4095 3507
0 4095 3988
0 4095 4095
0 4095 4095
0 4095 4095
0 4095 0
0 4095 0
0 4095 0
0 4095 0
0 4095 38
0 4095 315
0 4095 619
0 4095 1002
0 4095 1460
0 4095 1946
0 4095 2451
0 4095 2968
0 4095 3490
0 4095 3978
0 4095 4095
0 4095 4095
0 4095 4095
501 0 0
493 0 32
493 0 227
487 0 487
471 0 842
450 0 1241
427 0 1670
401 0 2122
374 0 2590
346 0 3065
318 0 3537
300 0 3892
283 0 4095
264 0 4095
245 0 4095
225 0 4095
207 0 4095
409 0 0
397 0 0
393 0 154
384 0 384
366 0 727
342 0 1116
316 0 1537
286 0 1982
255 0 2441
224 0 2908
194 0 3379
170 0 3790
155 0 4064
138 0 4095
121 0 4095
104 0 4095
