Ground_Control_Cinestyle-Rec709/Additional_Formats/GC_Cinestyle-Rec709.3dl
# Converted by Briz LUT Converter
0 256 512 768 1023
0 0 0
0 0 868
0 0 2637
0 0 4095
0 0 4095
0 572 0
0 552 552
0 482 2308
0 417 4034
0 379 4095
0 1905 0
0 1924 166
0 1887 1887
0 1834 3828
0 1818 4095
0 3524 0
0 3553 0
0 3542 1458
0 3495 3495
0 3486 4095
0 4095 0
0 4095 9
0 4095 1403
0 4095 3435
0 4095 4095
834 0 0
794 0 794
693 0 2541
590 0 4094
493 0 4095
554 554 0
556 555 556
503 503 2319
450 450 4067
423 422 4095
231 1985 0
259 2008 259
241 1978 1978
210 1927 3926
220 1914 4095
19 3633 0
29 3662 26
28 3653 1574
20 3607 3606
22 3598 4095
50 4095 0
62 4095 62
62 4095 1519
36 4095 3537
19 4095 4095
2398 0 0
2333 0 492
2219 0 2219
2112 0 3937
2035 0 4095
2232 420 0
2240 432 432
2190 388 2190
2131 343 4004
2095 325 4095
1923 1923 0
1952 1952 232
1929 1928 1929
1884 1883 3914
1879 1879 4095
1551 3633 0
1584 3664 32
1578 3659 1578
1534 3617 3616
1527 3611 4095
1494 4095 0
1489 4095 45
1435 4095 1435
1331 4095 3412
1272 4095 4095
3905 0 0
3882 0 214
3812 0 1938
3749 0 3750
3720 0 4095
3980 296 0
3993 312 314
3973 275 2039
3934 224 3934
3926 209 4095
3852 1812 0
3883 1842 169
3874 1823 1824
3838 1778 3837
3840 1771 4095
3532 3532 0
3563 3563 13
3560 3560 1477
3517 3516 3517
3508 3508 4095
3305 4095 0
3304 4095 0
3271 4095 1192
3188 4095 3188
3128 4095 4095
4095 0 0
4095 0 90
4095 0 1795
4095 0 3706
4095 0 4095
4095 271 0
4095 294 294
4095 267 1976
4095 219 3937
4095 212 4095
4095 1820 0
4095 1852 236
4095 1839 1839
4095 1792 3869
4095 1784 4095
4095 3534 0
4095 3565 24
4095 3563 1478
4095 3512 3512
4095 3487 4095
4095 4095 0
4095 4095 0
4095 4095 1044
4095 4095 3034
4095 4095 4095
