LUTS/GC_Cinestyle-Rec709.cube
TITLE "Generate by Resolve"
LUT_3D_SIZE 33
0 0 0
0 0 0
0.00947585 0 0
0.036759 0 0
0.059678 0 0
0.0869917 0 0
0.122438 0 0
0.161852 0 0
0.203632 0 0
0.247135 0 0
0.291997 0 0
0.338537 0 0
0.386419 0 0
0.435035 0 0
0.484886 0 0
0.535012 0 0
0.585473 0 0
0.635828 0 0
0.685664 0 0
0.735897 0 0
0.786648 0 0
0.837476 0 0
0.881285 0 0
0.916686 0 0
0.953521 0 0
0.987076 0 0
1 0 0
1 0 0
1 0 0
1 0 0
1 0 0
1 0 0
1 0 0
0 0 0
0 0 0
0.00450141 0 0
0.0306249 0 0
0.0523232 0 0
0.07776 0 0
0.111192 0 0
0.148699 0 0
0.189166 0 0
0.231601 0 0
0.275822 0 0
0.321477 0 0
0.368231 0 0
0.415824 0 0
0.4636 0 0
0.511681 0 0
0.560739 0 0
0.6112 0 0
0.662425 0 0
0.714275 0 0
0.766323 0 0
0.81828 0 0
0.866438 0 0
0.904891 0 0
0.940948 0 0
0.97969 0 0
1 0 0
1 0 0
1 0 0
1 0 0
1 0 0
1 0 0
1 0 0
0 0.00370794 0
0 0.00175479 0
0.00015259 9.15541e-05 0
0.024506 0 0
0.0446174 0 0
0.0684977 0 0
0.0998093 0 0
0.136934 4.57771e-05 0
0.176318 3.0518e-05 0
0.217838 0 0
0.260716 0 0
0.304494 0 0
0.349355 0 0
0.39588 0 0
0.44445 0 0
0.494102 0 0
0.544808 0 0
0.596338 0 0
0.648737 0 0
0.701381 0 0
0.754513 0 0
0.807691 0 0
0.858305 0 0
0.899489 0 0
0.935943 0 0
0.976181 0 0
1 0 0
1 0 0
1 0 0
1 0 0
1 0 0
1 0 0
1 0 0
0 0.0271458 0
0 0.0239872 0
0 0.0213931 0
0.0200351 0.0200351 0
0.040177 0.0197147 0
0.0630961 0.0185245 0
0.0926833 0.0150607 0
0.127886 0.00979629 0
0.165454 0.00404364 0
0.205097 0.000900282 0
0.247166 0.000442512 0
0.291585 4.57771e-05 0
0.33785 0 0
0.385992 0 0
0.435264 0 0
0.485924 0 0
0.537621 0 0
0.590082 0 0
0.643198 0 0
0.69688 0 0
0.751034 0 0
0.805341 0 0
0.857649 0 0
0.901015 0 0
0.937896 0 0
0.977066 0 0
1 0 0
1 0 0
1 0 0
1 0 0
1 0 0
1 0 0
1 0 0
0 0.0472877 0
0 0.0437934 0
0 0.040589 0
0.0181582 0.0385443 0
0.0375067 0.0374914 0
0.0585794 0.035111 0
0.0867018 0.0310979 0
0.121614 0.0259861 0
0.160647 0.020325 0
0.202106 0.0142977 0
0.245731 0.00801099 0
0.291142 0.00329595 0
0.338354 0.00207523 0
0.387137 0.00115969 0
0.43711 0.000366217 0
0.488212 0 0
0.540597 0 0
0.594049 0 0
0.648127 0 0
0.702586 0 0
0.757366 0 0
0.812375 0 0
0.864973 0 0
0.90837 0 0
0.945495 0 0
0.98233 0 0
1 0 0
1 0 0
1 0 0
1 0 0
1 0 0
1 0 0
1 0 0
0 0.0665599 0
0 0.0623178 0
0 0.0576181 0
0.0116274 0.0551614 0
0.0311284 0.0543526 0
0.0534218 0.0533303 0
0.0822919 0.0506294 0
0.117937 0.0465705 0
0.157824 0.0417639 0
0.200183 0.0364843 0
0.244694 0.0308995 0
0.291035 0.0251926 0
0.339254 0.0192569 0
0.389059 0.0132296 0
0.440269 0.0081178 0
0.492897 0.00523384 0
0.546258 0.00424201 0
0.600183 0.00317388 0
0.65481 0.00201419 0
0.709972 0.000793469 0
0.765133 0 0
0.820233 0 0
0.873014 0 0
0.916625 0 0
0.953582 0 0
0.988037 0 0
1 0 0
1 0 0
1 0 0
1 0 0
1 0 0
1 0 0
1 0 0
0 0.0861067 0
0 0.0820172 0
0 0.0784466 0
0.00440986 0.0770123 0
0.0233616 0.0771649 0
0.0463264 0.076936 0
0.0754101 0.0752575 0
0.111299 0.0721599 0
0.151919 0.0679484 0
0.195422 0.0634928 0
0.241032 0.0587167 0
0.288655 0.0538643 0
0.338231 0.0489662 0
0.389319 0.0438849 0
0.441459 0.0387427 0
0.494575 0.0333867 0
0.548653 0.0281834 0
0.603433 0.0226749 0
0.658915 0.0176394 0
0.714611 0.0125887 0
0.770504 0.0089723 0
0.826078 0.00781262 0
0.879637 0.00663767 0
0.924193 0.00622568 0
0.961227 0.00645457 0
0.993332 0.00630198 0
1 0.00605783 0
1 0.00585946 0
1 0.00553903 0
1 0.00521859 0
1 0.00486763 0
1 0.00448615 0
1 0.00419623 0
0 0.110948 0
0 0.107424 0
0 0.10454 0
0.00077821 0.103487 0
0.013611 0.104601 0
0.0369421 0.105287 0
0.0665141 0.104494 0
0.102647 0.102556 0
0.144228 0.0995193 0
0.188998 0.0957809 0
0.235859 0.0918288 0
0.284596 0.0876326 0
0.335042 0.0832837 0
0.387015 0.0785992 0
0.439872 0.0737926 0
0.494011 0.0688182 0
0.548775 0.0637369 0
0.604288 0.0587625 0
0.660502 0.0536965 0
0.716899 0.0488136 0
0.77319 0.043946 0
0.829389 0.0390478 0
0.883986 0.0348516 0
0.930266 0.03299 0
0.967788 0.0334173 0
0.997803 0.0327764 0
1 0.0318456 0
1 0.0309148 0
1 0.0297856 0
1 0.0289769 0
1 0.0280308 0
1 0.0270695 0
1 0.0263371 0
0 0.139666 0
0 0.136675 0
0 0.134707 0
0.00015259 0.13434 0
0.00476081 0.136355 0
0.0277867 0.138216 0
0.057557 0.13872 0
0.0934157 0.137758 0
0.135378 0.135332 0
0.180545 0.132296 0
0.22826 0.128923 0
0.277638 0.125261 0
0.328618 0.121172 0
0.381018 0.116808 0
0.434775 0.1122 0
0.489464 0.107439 0
0.545052 0.10251 0
0.601343 0.0975204 0
0.658091 0.0925154 0
0.715236 0.0877241 0
0.772381 0.082826 0
0.829526 0.0781567 0
0.88539 0.0737926 0
0.933776 0.0716869 0
0.972015 0.0722362 0
1 0.0717784 0
1 0.070985 0
1 0.0702068 0
1 0.0693828 0
1 0.068574 0
1 0.067628 0
1 0.0668498 0
1 0.0662089 0
0 0.172183 0
0 0.169833 0
0 0.168826 0
0 0.169436 0
0.00190738 0.172137 0
0.019089 0.174609 0
0.0489204 0.175784 0
0.0842145 0.175753 0
0.125933 0.17406 0
0.171572 0.171542 0
0.219364 0.168612 0
0.269047 0.165103 0
0.320317 0.161379 0
0.373098 0.157321 0
0.427008 0.153033 0
0.4822 0.148348 0
0.538231 0.143679 0
0.59501 0.139055 0
0.652216 0.134234 0
0.709972 0.129351 0
0.767666 0.124575 0
0.825483 0.120012 0
0.882353 0.115618 0
0.932952 0.113069 0
0.972595 0.11342 0
1 0.113451 0
1 0.112566 0
1 0.111833 0
1 0.111055 0
1 0.110124 0
1 0.109361 0
1 0.108644 0
1 0.108064 0
0 0.208469 0
0 0.206592 0
0 0.206332 0
0 0.207492 0
0.000793469 0.210529 0
0.0106813 0.213565 0
0.0406043 0.215213 0
0.0752422 0.215686 0
0.116228 0.214649 0
0.161761 0.212497 0
0.209873 0.209842 0
0.259678 0.206744 0
0.311284 0.20322 0
0.364294 0.199481 0
0.418555 0.195315 0
0.474052 0.191058 0
0.530373 0.186679 0
0.587335 0.182162 0
0.644953 0.177554 0
0.703075 0.1729 0
0.761166 0.168353 0
0.819409 0.163989 0
0.877089 0.159655 0
0.929519 0.156832 0
0.971038 0.157092 0
0.999496 0.157397 0
1 0.156634 0
1 0.155947 0
1 0.155337 0
1 0.154437 0
1 0.153719 0
1 0.153017 0
1 0.152255 0
0 0.247349 0
0 0.246098 0
0 0.246189 0
0 0.247547 0
0 0.250858 0
0.00480659 0.253986 0
0.0322118 0.256107 0
0.0661784 0.25713 0
0.106172 0.256779 0
0.151614 0.254978 0
0.19968 0.252415 0
0.249821 0.249775 0
0.301549 0.246601 0
0.354742 0.243015 0
0.409216 0.239307 0
0.464851 0.235142 0
0.521385 0.231022 0
0.578973 0.226703 0
0.636957 0.222324 0
0.695186 0.217914 0
0.753674 0.213535 0
0.812345 0.209186 0
0.870573 0.20499 0
0.924544 0.201984 0
0.968109 0.201907 0
0.997436 0.20264 0
1 0.202228 0
1 0.201556 0
1 0.201129 0
1 0.200336 0
1 0.199802 0
1 0.199222 0
1 0.198535 0
0 0.288258 0
0 0.28719 0
0 0.287541 0
0 0.289204 0
0 0.292775 0
0.00314336 0.296025 0
0.0234531 0.298589 0
0.057023 0.300114 0
0.0960555 0.300206 0
0.141146 0.298878 0
0.189364 0.296605 0
0.239368 0.294057 0
0.291295 0.291249 0
0.344564 0.287922 0
0.399237 0.284321 0
0.455039 0.280598 0
0.511955 0.276509 0
0.569802 0.272419 0
0.627832 0.268284 0
0.686671 0.263874 0
0.745342 0.259663 0
0.804364 0.255497 0
0.863005 0.251469 0
0.9187 0.248295 0
0.964034 0.248112 0
0.994079 0.249241 0
1 0.248798 0
1 0.248371 0
1 0.248081 0
1 0.247562 0
1 0.246998 0
1 0.246586 0
1 0.246021 0
0 0.330587 0
0 0.329717 0
0 0.330404 0
0 0.332204 0
0 0.336034 0
0.00144961 0.339498 0
0.0146792 0.342367 0
0.0479438 0.34432 0
0.085893 0.345006 0
0.130404 0.344015 0
0.178546 0.34226 0
0.228748 0.339986 0
0.280629 0.337102 0
0.334203 0.334203 0
0.388968 0.330831 0
0.445167 0.327123 0
0.502037 0.3234 0
0.559838 0.319387 0
0.618402 0.315419 0
0.677302 0.311208 0
0.736553 0.307164 0
0.795666 0.303181 0
0.854704 0.29929 0
0.911635 0.29601 0
0.959442 0.295201 0
0.990524 0.296651 0
1 0.296407 0
1 0.296345 0
1 0.295995 0
1 0.295583 0
1 0.295125 0
1 0.294881 0
1 0.294438 0
0 0.374319 0
0 0.37351 0
0 0.374304 0
0 0.376547 0
0 0.380468 0
0.000183108 0.3841 0
0.0077821 0.387137 0
0.0387121 0.389517 0
0.0759899 0.390753 0
0.119371 0.390311 0
0.167483 0.388708 0
0.217807 0.386709 0
0.269749 0.384253 0
0.323186 0.38143 0
0.378347 0.378302 0
0.434485 0.374777 0
0.491737 0.371069 0
0.549798 0.367422 0
0.608392 0.36347 0
0.667552 0.359625 0
0.727047 0.355734 0
0.786511 0.351644 0
0.845945 0.34786 0
0.903655 0.344549 0
0.953918 0.343328 0
0.986984 0.344884 0
1 0.345113 0
1 0.345006 0
1 0.344808 0
1 0.344717 0
1 0.344381 0
1 0.343969 0
1 0.343618 0
0 0.419196 0
0 0.418601 0
0 0.419623 0
0 0.42211 0
0 0.42623 0
0 0.429969 0
0.00502022 0.432853 0
0.0294957 0.435615 0
0.0660258 0.437354 0
0.108309 0.437507 0
0.156176 0.43624 0
0.206439 0.434531 0
0.258473 0.432334 0
0.312108 0.429511 0
0.367285 0.426566 0
0.423575 0.423545 0
0.480903 0.420096 0
0.539208 0.416449 0
0.598047 0.412665 0
0.657435 0.408988 0
0.717235 0.405035 0
0.776852 0.401266 0
0.836637 0.397574 0
0.895247 0.394186 0
0.947631 0.39234 0
0.983597 0.393652 0
1 0.394446 0
1 0.394476 0
1 0.394461 0
1 0.394568 0
1 0.394369 0
1 0.394034 0
1 0.393713 0
0 0.465248 0
0 0.464836 0
0 0.466087 0
0 0.468635 0
0 0.472953 0
0 0.47689 0
0.0027924 0.479881 0
0.0204929 0.482856 0
0.0563363 0.48484 0
0.0975967 0.485603 0
0.144732 0.484932 0
0.195102 0.483253 0
0.247105 0.481315 0
0.300725 0.478691 0
0.355779 0.475944 0
0.412222 0.472938 0
0.469673 0.469657 0
0.528038 0.466346 0
0.587259 0.462669 0
0.646693 0.458961 0
0.706706 0.455375 0
0.766827 0.451575 0
0.826596 0.448066 0
0.886259 0.444663 0
0.940612 0.442405 0
0.979889 0.443397 0
1 0.444617 0
1 0.44477 0
1 0.444862 0
1 0.444907 0
1 0.444846 0
1 0.444739 0
1 0.444419 0
0 0.512184 0
0 0.511788 0
0 0.513237 0
0 0.516197 0
0 0.520729 0
0 0.52462 0
0.000854505 0.527718 0
0.0124666 0.530816 0
0.0469673 0.533181 0
0.0869154 0.534478 0
0.133272 0.533989 0
0.183459 0.532769 0
0.235569 0.530892 0
0.289296 0.528771 0
0.344381 0.526299 0
0.400916 0.523507 0
0.458473 0.520378 0
0.516991 0.516991 0
0.576181 0.513436 0
0.635966 0.509819 0
0.695888 0.506325 0
0.756252 0.502632 0
0.816327 0.499229 0
0.876554 0.495674 0
0.932479 0.493416 0
0.975784 0.493828 0
1 0.495415 0
1 0.495598 0
1 0.495781 0
1 0.495949 0
1 0.496025 0
1 0.495995 0
1 0.495842 0
0 0.559899 0
0 0.560006 0
0 0.561624 0
0 0.564599 0
0 0.569299 0
0 0.573404 0
0 0.576593 0
0.00775158 0.579538 0
0.0378882 0.582391 0
0.0768597 0.584146 0
0.122118 0.584176 0
0.171893 0.583062 0
0.223941 0.581384 0
0.277668 0.5794 0
0.332753 0.577096 0
0.389395 0.574258 0
0.447074 0.571344 0
0.505501 0.568215 0
0.564904 0.564874 0
0.624796 0.561563 0
0.684916 0.55787 0
0.745403 0.554223 0
0.80592 0.550912 0
0.866194 0.547448 0
0.923598 0.54493 0
0.970977 0.544869 0
0.999039 0.546868 0
1 0.547082 0
1 0.547341 0
1 0.547616 0
1 0.54757 0
1 0.547631 0
1 0.547616 0
0 0.608606 0
0 0.608911 0
0 0.610513 0
0 0.613657 0
0 0.618494 0
0 0.622721 0
0 0.62594 0
0.0052491 0.628885 0
0.0289921 0.631998 0
0.0671855 0.634241 0
0.111116 0.634928 0
0.16051 0.63415 0
0.212543 0.632639 0
0.266148 0.63064 0
0.321141 0.628458 0
0.377523 0.62594 0
0.435218 0.623194 0
0.494026 0.619989 0
0.553567 0.61677 0
0.613626 0.613642 0
0.673976 0.610147 0
0.734371 0.606485 0
0.795117 0.603006 0
0.855604 0.599802 0
0.914199 0.596902 0
0.964813 0.596445 0
0.995727 0.598657 0
1 0.598947 0
1 0.599237 0
1 0.599573 0
1 0.599588 0
1 0.599771 0
1 0.599756 0
0 0.657938 0
0 0.658366 0
0 0.660227 0
0 0.663554 0
0 0.668528 0
0 0.672862 0
0 0.676158 0
0.00263981 0.679118 0
0.0202945 0.682078 0
0.0578012 0.684672 0
0.100359 0.685924 0
0.149325 0.685496 0
0.201068 0.684245 0
0.254704 0.682506 0
0.309697 0.680507 0
0.365927 0.67808 0
0.423713 0.675212 0
0.482506 0.672343 0
0.542092 0.669245 0
0.602152 0.66601 0
0.662699 0.662654 0
0.723507 0.659144 0
0.784039 0.655848 0
0.844831 0.652476 0
0.904494 0.649439 0
0.957473 0.648188 0
0.991226 0.650202 0
1 0.651164 0
1 0.651545 0
1 0.651743 0
1 0.652049 0
1 0.652277 0
1 0.652216 0
0 0.707988 0
0 0.708293 0
0 0.710491 0
0 0.713954 0
0 0.718868 0
0 0.723537 0
0 0.726848 0
0.000671397 0.72987 0
0.0133211 0.732998 0
0.0492103 0.735668 0
0.0905165 0.737331 0
0.138155 0.737377 0
0.1897 0.736339 0
0.243336 0.734768 0
0.29839 0.732769 0
0.354604 0.730587 0
0.412207 0.727993 0
0.471092 0.724956 0
0.530449 0.721996 0
0.590845 0.718837 0
0.651469 0.715587 0
0.712184 0.712184 0
0.773144 0.708873 0
0.833844 0.705562 0
0.894224 0.702434 0
0.949264 0.700908 0
0.98677 0.702251 0
1 0.703655 0
1 0.703975 0
1 0.704417 0
1 0.704601 0
1 0.704829 0
1 0.704814 0
0 0.758663 0
0 0.759121 0
0 0.761257 0
0 0.764843 0
0 0.769772 0
0 0.774365 0
0 0.777966 0
0 0.781048 0
0.00944533 0.78407 0
0.0409857 0.787182 0
0.0812085 0.788983 0
0.127504 0.789441 0
0.178653 0.788647 0
0.232074 0.787259 0
0.287053 0.785641 0
0.343359 0.783444 0
0.400931 0.780972 0
0.459434 0.777981 0
0.51902 0.775128 0
0.579461 0.772061 0
0.639979 0.768872 0
0.701091 0.765499 0
0.762005 0.76202 0
0.823133 0.75874 0
0.883696 0.755764 0
0.940566 0.753628 0
0.982147 0.754391 0
1 0.756207 0
1 0.756619 0
1 0.757137 0
1 0.757321 0
1 0.757488 0
1 0.757656 0
0 0.809537 0
0 0.810269 0
0 0.812543 0
0 0.816052 0
0 0.821256 0
0 0.825849 0
0 0.829313 0
0 0.832425 0
0.00682078 0.835477 0
0.0332952 0.838773 0
0.0726177 0.841001 0
0.117433 0.84184 0
0.168093 0.841291 0
0.221149 0.840085 0
0.276036 0.838392 0
0.33225 0.836515 0
0.389792 0.833982 0
0.448249 0.831266 0
0.507958 0.82826 0
0.568124 0.825284 0
0.628901 0.822141 0
0.690013 0.818814 0
0.751125 0.815396 0
0.812131 0.812146 0
0.873198 0.808942 0
0.931319 0.806683 0
0.977172 0.806714 0
1 0.808728 0
1 0.809384 0
1 0.809735 0
1 0.810071 0
1 0.810056 0
1 0.81033 0
0 0.860609 0
0 0.861463 0
0 0.863859 0
0 0.86772 0
0 0.872877 0
0 0.877379 0
0 0.880858 0
0 0.884031 0
0.00456245 0.887068 0
0.0265202 0.890196 0
0.0648051 0.892973 0
0.10811 0.894331 0
0.157931 0.893919 0
0.210941 0.892866 0
0.265309 0.891554 0
0.321675 0.88957 0
0.378836 0.887129 0
0.437201 0.88455 0
0.496941 0.881605 0
0.557137 0.878691 0
0.617838 0.875547 0
0.678798 0.872206 0
0.740047 0.868925 0
0.801419 0.86566 0
0.862425 0.86244 0
0.92163 0.859602 0
0.971817 0.859129 0
0.999725 0.861402 0
1 0.861982 0
1 0.862501 0
1 0.862577 0
1 0.862943 0
1 0.863005 0
0 0.910536 0
0 0.91165 0
0 0.914229 0
0 0.918151 0
0 0.923262 0
0 0.927733 0
0 0.931258 0
0 0.934493 0
0.00369268 0.937499 0
0.0236515 0.940581 0
0.0611734 0.943542 0
0.102968 0.945434 0
0.151186 0.945769 0
0.203464 0.944762 0
0.257725 0.943633 0
0.313344 0.941817 0
0.370153 0.939544 0
0.42826 0.937224 0
0.487556 0.934478 0
0.547585 0.931655 0
0.608179 0.928557 0
0.668971 0.925124 0
0.730205 0.92195 0
0.791302 0.91873 0
0.85243 0.915465 0
0.912062 0.912413 0
0.965667 0.911421 0
0.998123 0.91342 0
1 0.914412 0
1 0.914961 0
1 0.915129 0
1 0.915297 0
1 0.915526 0
0 0.957595 0
0 0.958938 0
0 0.961639 0
0 0.965377 0
0 0.969848 0
0 0.972747 0
0 0.975097 0
0 0.977386 0
0.00560006 0.979553 0
0.0290684 0.981857 0
0.0662242 0.984176 0
0.106691 0.985901 0
0.153185 0.986481 0
0.204685 0.986145 0
0.258289 0.985306 0
0.313283 0.984253 0
0.369512 0.982879 0
0.426963 0.981292 0
0.485527 0.979461 0
0.544717 0.977493 0
0.604608 0.975265 0
0.664912 0.973037 0
0.725658 0.970581 0
0.786267 0.968185 0
0.846616 0.965774 0
0.906569 0.96347 0
0.961593 0.962234 0
0.996628 0.963806 0
1 0.964828 0
1 0.965179 0
1 0.965621 0
1 0.965713 0
1 0.965667 0
0 0.9906 0
0 0.99202 0
0 0.994232 0
0 0.997223 0
0 1 0
0 1 0
0 1 0
0 1 0
0.00827039 1 0
