LUTS/GC_Cinestyle-Rec709.cube
TITLE "Generate by Resolve"
LUT_3D_SIZE 5
0 0 0
0.203632 0 0
0.585473 0 0
0.953521 0 0
1 0 0
0 0.139666 0
0.135378 0.135332 0
0.545052 0.10251 0
0.972015 0.0722362 0
1 0.0662089 0
0 0.465248 0
0.0563363 0.48484 0
0.469673 0.469657 0
0.940612 0.442405 0
1 0.444419 0
0 0.860609 0
0.00456245 0.887068 0
0.378836 0.887129 0
0.862425 0.86244 0
1 0.863005 0
0 1 0
0.0122988 1 0
0.364858 1 0
0.80705 1 0
1 1 0
0 0 0.211917
0.193835 0 0.193896
0.56965 0 0.120043
0.94789 0 0.0521859
1 0 0.0220645
0 0.134783 0.134829
0.135668 0.135622 0.135668
0.546929 0.105425 0.105531
0.975097 0.0762646 0.0766155
1 0.07187 0.0719005
0 0.469764 0.0404517
0.0632029 0.490471 0.0632334
0.476616 0.4766 0.0566873
0.948119 0.449912 0.0412146
1 0.452186 0.0576028
0 0.867765 0
0.00698863 0.89427 0.00643931
0.386831 0.894804 0.00773632
0.870069 0.8701 0.00323491
1 0.870604 0.00588998
0 1 0.00231937
0.0150454 1 0.0150454
0.363561 1 0.0109102
0.806745 1 0
1 1 0
0 0 0.643931
0.169146 0 0.620508
0.541909 0 0.541909
0.930983 0 0.47332
1 0 0.43827
0 0.117678 0.563592
0.122789 0.122728 0.566354
0.534722 0.0948653 0.534691
0.970092 0.0671397 0.497993
1 0.0652781 0.48246
0 0.460838 0.460853
0.0587778 0.483024 0.482994
0.471077 0.470817 0.471092
0.946044 0.445136 0.445396
1 0.44918 0.44918
0 0.864897 0.356085
0.00689708 0.892042 0.38436
0.385229 0.893614 0.385229
0.869322 0.869352 0.360586
1 0.869978 0.360845
0 1 0.342657
0.0151217 1 0.370962
0.3505 1 0.350515
0.798856 1 0.29099
1 1 0.254871
0 0 1
0.144076 0 0.999847
0.515846 0 0.961303
0.915496 0 0.915694
1 0 0.904952
0 0.101823 0.985153
0.110002 0.109911 0.993255
0.520333 0.0837415 0.977661
0.960601 0.0545968 0.960708
1 0.0534981 0.961456
0 0.447929 0.934813
0.0513466 0.470634 0.958679
0.46009 0.459846 0.955825
0.937133 0.434089 0.93695
1 0.437644 0.944747
0 0.853529 0.853468
0.00479133 0.880766 0.880598
0.374655 0.883162 0.883101
0.858793 0.858564 0.858793
1 0.857679 0.857649
0 1 0.838911
0.00872816 1 0.863615
0.324987 1 0.833249
0.778622 1 0.778622
1 1 0.740826
0 0 1
0.120363 0 1
0.496834 0 1
0.908522 0 1
1 0 1
0 0.0924544 1
0.103197 0.102968 1
0.511635 0.0794842 1
0.958663 0.0510414 1
1 0.0518349 1
0 0.443839 1
0.0537423 0.467323 1
0.458747 0.458747 1
0.937713 0.432578 1
1 0.435584 1
0 0.851331 1
0.00547799 0.878737 1
0.37293 0.881773 1
0.856641 0.856672 1
1 0.851423 1
0 1 1
0.00456245 1 1
0.310521 1 1
0.763745 1 1
1 1 1
