LUTS/GC_Cinestyle-Rec709.cube
TITLE "Generate by Resolve"
LUT_3D_SIZE 9
0 0 0
0.059678 0 0
0.203632 0 0
0.386419 0 0
0.585473 0 0
0.786648 0 0
0.953521 0 0
1 0 0
1 0 0
0 0.0472877 0
0.0375067 0.0374914 0
0.160647 0.020325 0
0.338354 0.00207523 0
0.540597 0 0
0.757366 0 0
0.945495 0 0
1 0 0
1 0 0
0 0.139666 0
0.00476081 0.136355 0
0.135378 0.135332 0
0.328618 0.121172 0
0.545052 0.10251 0
0.772381 0.082826 0
0.972015 0.0722362 0
1 0.0693828 0
1 0.0662089 0
0 0.288258 0
0 0.292775 0
0.0960555 0.300206 0
0.291295 0.291249 0
0.511955 0.276509 0
0.745342 0.259663 0
0.964034 0.248112 0
1 0.248081 0
1 0.246021 0
0 0.465248 0
0 0.472953 0
0.0563363 0.48484 0
0.247105 0.481315 0
0.469673 0.469657 0
0.706706 0.455375 0
0.940612 0.442405 0
1 0.444862 0
1 0.444419 0
0 0.657938 0
0 0.668528 0
0.0202945 0.682078 0
0.201068 0.684245 0
0.423713 0.675212 0
0.662699 0.662654 0
0.904494 0.649439 0
1 0.651545 0
1 0.652216 0
0 0.860609 0
0 0.872877 0
0.00456245 0.887068 0
0.157931 0.893919 0
0.378836 0.887129 0
0.617838 0.875547 0
0.862425 0.86244 0
1 0.861982 0
1 0.863005 0
0 1 0
0 1 0
0.00935378 1 0
0.160128 1 0
0.374395 1 0
0.609934 1 0
0.852583 1 0
1 1 0
1 1 0
0 1 0
0 1 0
0.0122988 1 0
0.165057 1 0
0.364858 1 0
0.583322 1 0
0.80705 1 0
1 1 0
1 1 0
0 0 0.0590829
0.0585031 0 0.0585031
0.200427 0 0.0460517
0.381903 0 0.0193637
0.578408 0 0.00077821
0.780697 0 0
0.95053 0 0
1 0 0
1 0 0
0 0.0438239 0.0438544
0.0322271 0.0321355 0.0322423
0.15584 0.017258 0.017258
0.334478 0.00175479 0.00141909
0.537942 0 0
0.755871 0 0
0.945815 0 0
1 0 0
1 0 0
0 0.137453 0.00482185
0.00483711 0.135439 0.00479133
0.135531 0.1355 0.00610361
0.328984 0.12192 0.00164797
0.545708 0.103716 0.000213626
0.773358 0.0840925 0
0.972946 0.0738079 0
1 0.0714427 0
1 0.0685435 0
0 0.288853 0
0 0.293706 0
0.0979019 0.301747 0.000122072
0.293065 0.29305 0
0.513909 0.278645 0
0.747478 0.262272 0
0.966796 0.250462 0
1 0.250797 0
1 0.248981 0
0 0.467002 0
0 0.474693 0
0.0591897 0.486839 0
0.249729 0.483482 0
0.472587 0.472572 0
0.709529 0.458305 0
0.943862 0.44564 0
1 0.448203 0
1 0.447959 0
0 0.660838 0
0 0.671244 0
0.0238193 0.68545 0
0.204318 0.687251 0
0.427222 0.678569 0
0.665919 0.666194 0
0.907713 0.652934 0
1 0.655085 0
1 0.655802 0
0 0.864012 0
0 0.876249 0
0.00575265 0.890425 0
0.161852 0.89752 0
0.382589 0.890715 0
0.621317 0.87895 0
0.865797 0.865827 0
1 0.865171 0
1 0.866392 0
0 1 0
0 1 0
0.0102693 1 0
0.163668 1 0
0.378058 1 0
0.61326 1 0
0.855543 1 0
1 1 0
1 1 0
0 1 0
0 1 0
0.0131838 1 0
0.168551 1 0
0.364935 1 0
0.57998 1 0
0.806683 1 0
1 1 0
1 1 0
0 0 0.211917
0.0542458 0 0.209277
0.193835 0 0.193896
0.374868 0 0.162249
0.56965 0 0.120043
0.77528 0 0.0785687
0.94789 0 0.0521859
1 0 0.033753
1 0 0.0220645
0 0.0375982 0.184756
0.0259098 0.0259861 0.166827
0.150088 0.013077 0.150118
0.330251 0.0015259 0.121721
0.535897 0 0.0917525
0.755398 0 0.0641642
0.947402 0 0.0491493
1 0 0.0419623
1 0 0.0364843
0 0.134783 0.134829
0.00460822 0.134218 0.134249
0.135668 0.135622 0.135668
0.329763 0.122911 0.123003
0.546929 0.105425 0.105531
0.775296 0.0865949 0.0867781
0.975097 0.0762646 0.0766155
1 0.0744945 0.0746777
1 0.07187 0.0719005
0 0.29015 0.0852827
0 0.29546 0.0912337
0.100359 0.303929 0.100374
0.295827 0.295811 0.0941482
0.517037 0.282032 0.083238
0.751019 0.26569 0.0710918
0.970596 0.254124 0.0645609
1 0.25449 0.0708782
1 0.252918 0.0755322
0 0.469764 0.0404517
0 0.478218 0.0500038
0.0632029 0.490471 0.0632334
0.253559 0.487663 0.0631266
0.476616 0.4766 0.0566873
0.713634 0.462455 0.0477913
0.948119 0.449912 0.0412146
1 0.452384 0.0512093
1 0.452186 0.0576028
0 0.66421 0.00875868
0 0.6748 0.0144045
0.0281834 0.689006 0.0281834
0.208789 0.691371 0.0339055
0.43151 0.682811 0.0297246
0.670237 0.670253 0.0224155
0.912245 0.657221 0.0147402
1 0.659236 0.0225376
1 0.659922 0.0291752
0 0.867765 0
0 0.879652 0.00172427
0.00698863 0.89427 0.00643931
0.166079 0.90161 0.00877394
0.386831 0.894804 0.00773632
0.625605 0.883207 0.00555428
0.870069 0.8701 0.00323491
1 0.869612 0.00433356
1 0.870604 0.00588998
0 1 3.0518e-05
0 1 0.00622568
0.0113985 1 0.0108949
0.167987 1 0.0191806
0.382467 1 0.0142824
0.617594 1 0.0081178
0.859373 1 0.00422675
1 1 0.00134279
1 1 0
0 1 0.00231937
0 1 0.00918593
0.0150454 1 0.0150454
0.171496 1 0.0237888
0.363561 1 0.0109102
0.577066 1 0.00125124
0.806745 1 0
1 1 0
1 1 0
0 0 0.416892
0.0454566 0 0.412482
0.182696 0 0.39588
0.362341 0 0.362341
0.556405 0 0.317983
0.764279 0 0.276799
0.939941 0 0.248417
1 0 0.227832
1 0 0.211933
0 0.0266728 0.382254
0.0153658 0.0153658 0.363775
0.139162 0.00476081 0.348486
0.320058 0.000732433 0.320119
0.527825 0 0.290974
0.748714 0 0.26244
0.943572 0 0.244083
1 0 0.233066
1 0 0.222293
0 0.127092 0.335882
0.00218204 0.127489 0.335485
0.130251 0.130388 0.337713
0.324269 0.117952 0.324331
0.542062 0.101198 0.305806
0.770764 0.0832685 0.284932
0.973632 0.0731975 0.270512
1 0.0720684 0.264149
1 0.0701915 0.25594
0 0.285237 0.285298
0 0.29073 0.29102
0.0972763 0.299855 0.300099
0.292485 0.292454 0.292485
0.514107 0.278904 0.279179
0.748577 0.263432 0.263462
0.970382 0.252049 0.252094
1 0.253452 0.253483
1 0.252277 0.252293
0 0.466789 0.232059
0 0.475425 0.241154
0.0622721 0.48838 0.254032
0.252186 0.485878 0.252201
0.475578 0.475319 0.242252
0.713237 0.462028 0.229465
0.948959 0.449516 0.218051
1 0.452689 0.222263
1 0.453071 0.223789
0 0.663417 0.1794
0 0.674235 0.190845
0.0293431 0.688487 0.205692
0.209125 0.6916 0.209094
0.432151 0.683452 0.201694
0.671305 0.671565 0.190234
0.913863 0.658732 0.178714
1 0.660853 0.182544
1 0.661982 0.185504
0 0.868849 0.131655
0 0.881193 0.144839
0.0075227 0.895857 0.159854
0.16788 0.903288 0.16788
0.3888 0.896635 0.161898
0.627634 0.885359 0.151492
0.872389 0.872663 0.139574
1 0.871977 0.141039
1 0.87277 0.145434
0 1 0.131563
0 1 0.145495
0.0121309 1 0.160586
0.170321 1 0.170336
0.384131 1 0.164614
0.619425 1 0.15285
0.860029 1 0.137346
1 1 0.122515
1 1 0.104967
0 1 0.137209
0 1 0.151064
0.0173953 1 0.165118
0.171588 1 0.171603
0.359335 1 0.154269
0.572824 1 0.12372
0.804608 1 0.0989242
1 1 0.0794537
1 1 0.0726024
0 0 0.643931
0.0346532 0 0.637705
0.169146 0 0.620508
0.346456 0 0.58497
0.541909 0 0.541909
0.751415 0 0.501534
0.930983 0 0.47332
1 0 0.45388
1 0 0.43827
0 0.0130159 0.602365
0.00367742 0.00369268 0.585718
0.126329 0.00184634 0.572457
0.308324 0 0.545495
0.517479 0 0.517494
0.739773 0 0.489509
0.937789 0 0.470512
1 0 0.4598
1 0 0.448737
0 0.117678 0.563592
0.00148013 0.118898 0.563256
0.122789 0.122728 0.566354
0.316762 0.110948 0.553277
0.534722 0.0948653 0.534691
0.763684 0.0773327 0.513512
0.970092 0.0671397 0.497993
1 0.0666819 0.491112
1 0.0652781 0.48246
0 0.278096 0.514321
0 0.284001 0.519905
0.0919051 0.293797 0.529305
0.28687 0.286625 0.522148
0.508507 0.273716 0.508507
0.743465 0.258503 0.492668
0.967788 0.246906 0.480339
1 0.248493 0.481209
1 0.247883 0.479362
0 0.460838 0.460853
0 0.469825 0.469825
0.0587778 0.483024 0.482994
0.247745 0.481147 0.481117
0.471077 0.470817 0.471092
0.708873 0.457877 0.457664
0.946044 0.445136 0.445396
1 0.448707 0.448478
1 0.44918 0.44918
0 0.658763 0.406821
0 0.669551 0.418311
0.0268711 0.684108 0.432761
0.20528 0.687816 0.436149
0.428412 0.679667 0.428412
0.667857 0.667857 0.416602
0.910658 0.654871 0.404013
1 0.657267 0.406317
1 0.658488 0.407843
0 0.864897 0.356085
0 0.87747 0.369375
0.00689708 0.892042 0.38436
0.16466 0.899947 0.392081
0.385229 0.893614 0.385229
0.624521 0.882322 0.373846
0.869322 0.869352 0.360586
1 0.868727 0.359747
1 0.869978 0.360845
0 1 0.34905
0 1 0.363302
0.0109102 1 0.378637
0.167071 1 0.387655
0.380636 1 0.380591
0.615518 1 0.366293
0.854597 1 0.345266
1 1 0.323033
1 1 0.299992
0 1 0.342657
0 1 0.356588
0.0151217 1 0.370962
0.166629 1 0.373037
0.3505 1 0.350515
0.566491 1 0.319417
0.798856 1 0.29099
1 1 0.266773
1 1 0.254871
0 0 0.875517
0.0225376 0 0.868101
0.154574 0 0.851896
0.329229 0 0.815641
0.526848 0 0.776059
0.737881 0 0.737942
0.921706 0 0.710994
1 0 0.693874
1 0 0.679667
0 0.00270085 0.831968
0.00120546 0.00131228 0.817624
0.112337 0.000610361 0.805997
0.296284 0 0.782223
0.506477 0 0.756085
0.729595 0 0.729625
0.930892 0 0.710811
1 0 0.701473
1 0 0.691066
0 0.107851 0.801572
0.000717174 0.10985 0.80235
0.114611 0.114519 0.806287
0.308354 0.103365 0.794079
0.526345 0.0878309 0.776303
0.755261 0.0707713 0.755261
0.964721 0.0599222 0.739818
1 0.0601511 0.733577
1 0.0590982 0.725475
0 0.269993 0.75639
0 0.276158 0.761913
0.0860761 0.286275 0.772107
0.280125 0.28014 0.76556
0.50193 0.267384 0.752544
0.73724 0.252384 0.737194
0.963561 0.240467 0.724773
1 0.242618 0.726024
1 0.241917 0.724529
0 0.453803 0.705409
0 0.462989 0.714122
0.0543832 0.47628 0.727352
0.242222 0.475334 0.726467
0.465431 0.46566 0.716548
0.703456 0.452354 0.703441
0.941497 0.439811 0.690929
1 0.44271 0.69424
1 0.443595 0.694957
0 0.652399 0.652308
0 0.663691 0.663706
0.0231327 0.678035 0.678203
0.200412 0.682002 0.682475
0.423194 0.674556 0.67451
0.662562 0.662318 0.662547
0.906096 0.650019 0.650034
1 0.652216 0.651942
1 0.653162 0.653147
0 0.85948 0.60206
0 0.871809 0.614694
0.0059205 0.886702 0.629786
0.159716 0.895048 0.637888
0.380362 0.888716 0.631113
0.619272 0.877638 0.619272
0.86453 0.864546 0.605859
1 0.86363 0.604089
1 0.864485 0.604608
0 1 0.592889
0 1 0.607095
0.00944533 1 0.622385
0.161868 1 0.631052
0.374456 1 0.623987
0.608942 1 0.608911
0.845441 1 0.584909
1 1 0.558862
1 1 0.536431
0 1 0.584756
0 1 0.598444
0.01149 1 0.612085
0.157015 1 0.609827
0.337865 1 0.585275
0.556954 1 0.556893
0.789151 1 0.527703
1 1 0.502373
1 1 0.490227
0 0 1
0.01561 0 1
0.144076 0 0.999847
0.317266 0 0.984955
0.515846 0 0.961303
0.727611 0 0.931823
0.915496 0 0.915694
1 0 0.909102
1 0 0.904952
0 0.00125124 0.99556
6.10361e-05 0.000213626 0.989273
0.103243 0 0.984619
0.287953 0 0.971954
0.498802 0 0.953964
0.722011 0 0.936324
0.926375 0 0.926497
1 0 0.926116
1 0 0.923903
0 0.101823 0.985153
0.000335698 0.104402 0.988144
0.110002 0.109911 0.993255
0.302968 0.0993668 0.986984
0.520333 0.0837415 0.977661
0.748928 0.066041 0.968322
0.960601 0.0545968 0.960708
1 0.054963 0.962753
1 0.0534981 0.961456
0 0.264408 0.964416
0 0.270924 0.970535
0.0829938 0.281453 0.979324
0.275456 0.275471 0.978744
0.497063 0.262806 0.974166
0.732006 0.247349 0.966461
0.960204 0.23447 0.960037
1 0.236622 0.966949
1 0.235935 0.967697
0 0.447929 0.934813
0 0.457206 0.944976
0.0513466 0.470634 0.958679
0.23714 0.470161 0.961532
0.46009 0.459846 0.955825
0.698283 0.446876 0.946609
0.937133 0.434089 0.93695
1 0.436759 0.942061
1 0.437644 0.944747
0 0.646235 0.897307
0 0.657694 0.908705
0.0200504 0.671931 0.923186
0.195285 0.676707 0.929
0.417777 0.668849 0.922789
0.657328 0.657343 0.912581
0.901015 0.64419 0.900954
1 0.646189 0.903548
1 0.647074 0.90544
0 0.853529 0.853468
0 0.865873 0.865995
0.00479133 0.880766 0.880598
0.154528 0.889372 0.889281
0.374655 0.883162 0.883101
0.613565 0.871946 0.8719
0.858793 0.858564 0.858793
1 0.857435 0.85742
1 0.857679 0.857649
0 1 0.845167
0 1 0.859266
0.00761425 1 0.874434
0.155795 1 0.883162
0.367254 1 0.87631
0.60061 1 0.86096
0.833738 1 0.833738
1 1 0.805951
1 1 0.785489
0 1 0.838911
0 1 0.852247
0.00872816 1 0.863615
0.145586 1 0.857557
0.324987 1 0.833249
0.546014 1 0.807294
0.778622 1 0.778622
0.995346 1 0.752728
1 1 0.740826
0 0 1
0.00817884 0 1
0.132204 0 1
0.306142 0 1
0.50605 0 1
0.719066 0 1
0.912047 0 1
1 0 1
1 0 1
0 0 1
0 0 1
0.0954604 0 1
0.281086 0 1
0.492714 0 1
0.717113 0 1
0.925017 0 1
1 0 1
1 0 1
0 0.0971847 1
0.000198367 0.100206 1
0.106737 0.1066 1
0.299107 0.0967117 1
0.516197 0.081651 1
0.745403 0.0648661 1
0.960189 0.0534829 1
1 0.0539864 1
1 0.0530404 1
0 0.261219 1
0 0.268254 1
0.0826276 0.279072 1
0.274022 0.274022 1
0.495659 0.261692 1
0.731044 0.246647 1
0.96173 0.233814 1
1 0.235798 1
1 0.235294 1
0 0.446387 1
0 0.455955 1
0.0530709 0.469383 1
0.237201 0.469596 1
0.460151 0.460151 1
0.698192 0.446769 1
0.938003 0.433677 1
1 0.436179 1
1 0.436698 1
0 0.645274 1
0 0.656947 1
0.021973 0.671412 1
0.195666 0.67686 1
0.417639 0.66891 1
0.656809 0.656809 1
0.900969 0.643946 1
1 0.644648 1
1 0.645411 1
0 0.85214 1
0 0.865019 1
0.00511177 0.87982 1
0.15436 0.888731 1
0.373632 0.882307 1
0.612116 0.871046 1
0.857435 0.857466 1
1 0.85478 1
1 0.854307 1
0 1 1
0 1 1
0.00706493 1 1
0.153536 1 1
0.363394 1 1
0.594491 1 1
0.824048 1 1
1 1 1
1 1 1
0 1 1
0 1 1
0.00645457 1 1
0.136294 1 1
0.315587 1 1
0.536706 1 1
0.768948 1 1
0.988464 1 0.98851
1 1 0.982391
0 0 1
0.00474556 0 1
0.120363 0 1
0.295827 0 1
0.496834 0 1
0.711299 0 1
0.908522 0 1
1 0 1
1 0 1
0 0 1
0 0 1
0.087953 0 1
0.274113 0 1
0.486595 0 1
0.711757 0 1
0.923018 0 1
1 0 1
1 0 1
0 0.0924544 1
0 0.0958114 1
0.103197 0.102968 1
0.294469 0.0940108 1
0.511635 0.0794842 1
0.741146 0.0631571 1
0.958663 0.0510414 1
1 0.05243 1
1 0.0518349 1
0 0.25774 1
0 0.264942 1
0.0820325 0.27628 1
0.271702 0.271717 1
0.493645 0.2598 1
0.729198 0.24509 1
0.961913 0.231983 1
1 0.234165 1
1 0.233722 1
0 0.443839 1
0 0.453742 1
0.0537423 0.467323 1
0.236271 0.468269 1
0.458747 0.458747 1
0.697169 0.445747 1
0.937713 0.432578 1
1 0.434821 1
1 0.435584 1
0 0.64358 1
0 0.655375 1
0.0231785 0.669963 1
0.195117 0.675486 1
0.41709 0.668208 1
0.656245 0.656245 1
0.900572 0.643183 1
1 0.643458 1
1 0.644236 1
0 0.851331 1
0 0.864057 1
0.00547799 0.878737 1
0.154238 0.887739 1
0.37293 0.881773 1
0.611383 0.870344 1
0.856641 0.856672 1
1 0.853544 1
1 0.851423 1
0 1 1
0 1 1
0.00679026 1 1
0.152758 1 1
0.360906 1 1
0.589273 1 1
0.815763 1 1
1 1 1
1 0.999161 1
0 1 1
0 1 1
0.00456245 1 1
0.129702 1 1
0.310521 1 1
0.53138 1 1
0.763745 1 1
0.985885 1 1
1 1 1
