LUTS/PEZ4-h_1.2021-07-30 17-14-53.cube
TITLE "Generated by Resolve"
LUT_3D_SIZE 65
0 0 0
0 0 0
0 0 0
0 0 0
0 0 0
0.000427253 0 0
0.0059205 0 0
0.0124361 0 0
0.0202792 0 0
0.031693 0 0
0.0465095 0 0
0.0638132 0 0
0.0838026 0 0
0.106081 0 0
0.131029 0 0
0.159091 0 0
0.189914 0 0
0.223484 0 0
0.258961 0 0
0.296544 0 0
0.335286 0 0
0.374502 0 0
0.414786 0 0
0.455894 0 0
0.4981 0 0
0.540887 0 0
0.583001 0 0
0.623102 0 0
0.662623 0 0
0.701518 0 0
0.739223 0 0
0.775051 0 0
0.813291 0 0
0.85684 0 0
0.902388 0 0
0.94464 0 0
0.983673 0 0
1 0 0
1 0 0
1 0 0
1 0 0
1 0 0
1 0 0
1 0 0
1 0 0
1 0 0
1 0 0
1 0 0
1 0 0
1 0 0
1 0 0
1 0 0
1 0 0
1 0 0
1 0 0
1 0 0
1 0 0
1 0 0
1 0 0
1 0 0
1 0 0
1 0 0
1 0 0
1 0 0
1 0 0
0 0 0
0 0 0
0 0 0
0 0 0
0 0 0
0 0 0
0.00364691 0 0
0.00943008 0 0
0.016495 0 0
0.0270542 0 0
0.0407568 0 0
0.0570382 0 0
0.0758526 0 0
0.0968338 0 0
0.120394 0 0
0.146899 0 0
0.17612 0 0
0.207996 0 0
0.242267 0 0
0.279072 0 0
0.317662 0 0
0.35729 0 0
0.397604 0 0
0.439109 0 0
0.481758 0 0
0.525032 0 0
0.567803 0 0
0.60885 0 0
0.649393 0 0
0.689281 0 0
0.727886 0 0
0.764675 0 0
0.803479 0 0
0.847944 0 0
0.894408 0 0
0.938994 0 0
0.97937 0 0
1 0 0
1 0 0
1 0 0
1 0 0
1 0 0
1 0 0
1 0 0
1 0 0
1 0 0
1 0 0
1 0 0
1 0 0
1 0 0
1 0 0
1 0 0
1 0 0
1 0 0
1 0 0
1 0 0
1 0 0
1 0 0
1 0 0
1 0 0
1 0 0
1 0 0
1 0 0
1 0 0
1 0 0
0 0.00109865 0
0 0.00109865 0
0 0.00109865 0
0 0.00109865 0
0 0.00105287 0
0 0.000549325 0
0.00189212 0.000167849 0
0.00759899 0 0
0.0149081 0 0
0.0246281 0 0
0.0371099 0 0
0.0520638 0 0
0.0695811 0 0
0.0891737 0 0
0.111528 0 0
0.136919 0 0
0.165499 0 0
0.197086 0 0
0.230976 0 0
0.267735 0 0
0.306127 0 0
0.34612 0 0
0.386755 0 0
0.428367 0 0
0.471458 0 0
0.515328 0 0
0.558907 0 0
0.600656 0 0
0.642145 0 0
0.682933 0 0
0.722332 0 0
0.759609 0 0
0.799176 0 0
0.844495 0 0
0.892058 0 0
0.938155 0 0
0.979553 0 0
1 0 0
1 0 0
1 0 0
1 0 0
1 0 0
1 0 0
1 0 0
1 0 0
1 0 0
1 0 0
1 0 0
1 0 0
1 0 0
1 0 0
1 0 0
1 0 0
1 0 0
1 0 0
1 0 0
1 0 0
1 0 0
1 0 0
1 0 0
1 0 0
1 0 0
1 0 0
1 0 0
1 0 0
0 0.00486763 0
0 0.00486763 0
0 0.00486763 0
0 0.00486763 0
0 0.00477607 0
0 0.00376898 0
0.000915541 0.00366217 0
0.00642405 0.00317388 0
0.0134585 0.00225834 0
0.0231785 0.000717174 0
0.0356909 0 0
0.0505837 0 0
0.0678721 0 0
0.0871595 0 0
0.109361 0 0
0.134768 0 0
0.16347 0 0
0.195148 0 0
0.229389 0 0
0.266484 0 0
0.30518 0 0
0.345235 0 0
0.385931 0 0
0.428 0 0
0.471458 0 0
0.515709 0 0
0.559609 0 0
0.601801 0 0
0.643732 0 0
0.684947 0 0
0.724666 0 0
0.762081 0 0
0.801877 0 0
0.847517 0 0
0.895323 0 0
0.94226 0 0
0.984039 0 0
1 0 0
1 0 0
1 0 0
1 0 0
1 0 0
1 0 0
1 0 0
1 0 0
1 0 0
1 0 0
1 0 0
1 0 0
1 0 0
1 0 0
1 0 0
1 0 0
1 0 0
1 0 0
1 0 0
1 0 0
1 0 0
1 0 0
1 0 0
1 0 0
1 0 0
1 0 0
1 0 0
1 0 0
0 0.00943008 0
0 0.00943008 0
0 0.00943008 0
0 0.00943008 0
0 0.009308 0
0 0.00794995 0
0 0.00781262 0
0.00486763 0.00746166 0
0.0116732 0.00668345 0
0.0212863 0.00527962 0
0.0337682 0.00334173 0
0.0490578 0.000656138 0
0.0673533 0 0
0.0875257 0 0
0.110124 0 0
0.135286 0 0
0.16376 0 0
0.195422 0 0
0.229816 0 0
0.267063 0 0
0.305989 0 0
0.346441 0 0
0.387686 0 0
0.430198 0 0
0.473945 0 0
0.518761 0 0
0.563272 0 0
0.605722 0 0
0.647791 0 0
0.688899 0 0
0.728756 0 0
0.76643 0 0
0.806317 0 0
0.852064 0 0
0.900374 0 0
0.947707 0 0
0.989776 0 0
1 0 0
1 0 0
1 0 0
1 0 0
1 0 0
1 0 0
1 0 0
1 0 0
1 0 0
1 0 0
1 0 0
1 0 0
1 0 0
1 0 0
1 0 0
1 0 0
1 0 0
1 0 0
1 0 0
1 0 0
1 0 0
1 0 0
1 0 0
1 0 0
1 0 0
1 0 0
1 0 0
1 0 0
0 0.0144045 0
0 0.0144045 0
0 0.0144045 0
0 0.0144045 0
0 0.0142367 0
0 0.0124056 0
0 0.0120699 0
0.00289921 0.0121309 0
0.00970474 0.0117952 0
0.0193942 0.0108339 0
0.0320745 0.00918593 0
0.0477913 0.00675975 0
0.0665751 0.00375372 0
0.0874342 0.000320439 0
0.110811 0 0
0.137041 0 0
0.166506 0 0
0.198581 0 0
0.233066 0 0
0.270085 0 0
0.30901 0 0
0.349752 0 0
0.391226 0 0
0.434363 0 0
0.478798 0 0
0.523903 0 0
0.568505 0 0
0.611063 0 0
0.652934 0 0
0.694179 0 0
0.733898 0 0
0.771511 0 0
0.811292 0 0
0.857557 0 0
0.906035 0 0
0.953918 0 0
0.996277 0 0
1 0 0
1 0 0
1 0 0
1 0 0
1 0 0
1 0 0
1 0 0
1 0 0
1 0 0
1 0 0
1 0 0
1 0 0
1 0 0
1 0 0
1 0 0
1 0 0
1 0 0
1 0 0
1 0 0
1 0 0
1 0 0
1 0 0
1 0 0
1 0 0
1 0 0
1 0 0
1 0 0
1 0 0
0 0.0204623 0
0 0.0204623 0
0 0.0204623 0
0 0.0204623 0
0 0.0203098 0
0 0.0186465 0
0 0.0181277 0
0.000656138 0.018616 0
0.00720226 0.0187076 0
0.0167849 0.0181735 0
0.0293736 0.0168917 0
0.0452888 0.0148623 0
0.0643778 0.0121309 0
0.0857252 0.00895705 0
0.10988 0.00514229 0
0.136858 0.000793469 0
0.167086 0 0
0.200137 0 0
0.235554 0 0
0.273884 0 0
0.314092 0 0
0.355688 0 0
0.397955 0 0
0.441489 0 0
0.486137 0 0
0.531334 0 0
0.57586 0 0
0.618158 0 0
0.659571 0 0
0.700359 0 0
0.739818 0 0
0.77731 0 0
0.817243 0 0
0.863508 0 0
0.912398 0 0
0.960418 0 0
1 0 0
1 0 0
1 0 0
1 0 0
1 0 0
1 0 0
1 0 0
1 0 0
1 0 0
1 0 0
1 0 0
1 0 0
1 0 0
1 0 0
1 0 0
1 0 0
1 0 0
1 0 0
1 0 0
1 0 0
1 0 0
1 0 0
1 0 0
1 0 0
1 0 0
1 0 0
1 0 0
1 0 0
1 0 0
0 0.0280308 0
0 0.0280308 0
0 0.0280308 0
0 0.0280308 0
0 0.0278782 0
0 0.0261234 0
0 0.0255436 0
0 0.0263676 0
0.00437934 0.0269017 0
0.0137331 0.0268101 0
0.0261845 0.0259861 0
0.0421149 0.0243534 0
0.061387 0.0220188 0
0.083238 0.0191196 0
0.108003 0.0155795 0
0.135561 0.0114595 0
0.166567 0.00672923 0
0.20032 0.00135805 0
0.236683 0 0
0.275898 0 0
0.317021 0 0
0.359426 0 0
0.402365 0 0
0.446494 0 0
0.491661 0 0
0.537392 0 0
0.582513 0 0
0.625315 0 0
0.667567 0 0
0.708919 0 0
0.748806 0 0
0.786542 0 0
0.826734 0 0
0.87332 0 0
0.922576 0 0
0.971237 0 0
1 0 0
1 0 0
1 0 0
1 0 0
1 0 0
1 0 0
1 0 0
1 0 0
1 0 0
1 0 0
1 0 0
1 0 0
1 0 0
1 0 0
1 0 0
1 0 0
1 0 0
1 0 0
1 0 0
1 0 0
1 0 0
1 0 0
1 0 0
1 0 0
1 0 0
1 0 0
1 0 0
1 0 0
1 0 0
0 0.0370336 0
0 0.0370336 0
0 0.0370336 0
0 0.0370336 0
0 0.0368658 0
0 0.0351568 0
0 0.0345922 0
0 0.0354314 0
0.0011902 0.0365759 0
0.010193 0.0369879 0
0.0223697 0.0367285 0
0.0381933 0.0357214 0
0.0577401 0.033753 0
0.0799268 0.031281 0
0.105119 0.0282292 0
0.133257 0.0244907 0
0.164767 0.0200046 0
0.199008 0.0148165 0
0.235996 0.00903334 0
0.276066 0.00244144 0
0.318029 0 0
0.361425 0 0
0.405112 0 0
0.449928 0 0
0.49575 0 0
0.542229 0 0
0.588159 0 0
0.631815 0 0
0.674586 0 0
0.716609 0 0
0.757107 0 0
0.795422 0 0
0.836194 0 0
0.883192 0 0
0.93257 0 0
0.98175 0 0
1 0 0
1 0 0
1 0 0
1 0 0
1 0 0
1 0 0
1 0 0
1 0 0
1 0 0
1 0 0
1 0 0
1 0 0
1 0 0
1 0 0
1 0 0
1 0 0
1 0 0
1 0 0
1 0 0
1 0 0
1 0 0
1 0 0
1 0 0
1 0 0
1 0 0
1 0 0
1 0 0
1 0 0
1 0 0
0 0.0479286 0
0 0.0479286 0
0 0.0479286 0
0 0.0479286 0
0 0.047776 0
0 0.0460822 0
0 0.045655 0
0 0.046479 0
0 0.048249 0
0.00646983 0.0492103 0
0.0182803 0.0494698 0
0.0339971 0.0489662 0
0.0534524 0.0476234 0
0.075761 0.0456092 0
0.101198 0.0428931 0
0.129534 0.0395056 0
0.161395 0.0353246 0
0.195926 0.0303807 0
0.233402 0.0250095 0
0.273808 0.0186465 0
0.316197 0.0118105 0
0.36022 0.00482185 0
0.404715 0 0
0.45005 0 0
0.49659 0 0
0.543832 0 0
0.590234 0 0
0.634653 0 0
0.678386 0 0
0.721096 0 0
0.76231 0 0
0.801297 0 0
0.842603 0 0
0.890196 0 0
0.940688 0 0
0.991073 0 0
1 0 0
1 0 0
1 0 0
1 0 0
1 0 0
1 0 0
1 0 0
1 0 0
1 0 0
1 0 0
1 0 0
1 0 0
1 0 0
1 0 0
1 0 0
1 0 0
1 0 0
1 0 0
1 0 0
1 0 0
1 0 0
1 0 0
1 0 0
1 0 0
1 0 0
1 0 0
1 0 0
1 0 0
1 0 0
0 0.0604105 0
0 0.0604105 0
0 0.0604105 0
0 0.0604105 0
0 0.0602426 0
0 0.0585946 0
0 0.05832 0
0 0.0590219 0
0 0.0610361 0
0.00270085 0.0628824 0
0.0140841 0.0638132 0
0.0294804 0.063798 0
0.0487373 0.0629435 0
0.071046 0.061265 0
0.0965744 0.0590066 0
0.125109 0.0560464 0
0.157137 0.0521553 0
0.191882 0.0478981 0
0.229374 0.0425879 0
0.270191 0.0365148 0
0.313069 0.0299687 0
0.357458 0.0231327 0
0.402426 0.0159915 0
0.448447 0.00868238 0
0.495552 0.00132753 0
0.543526 0 0
0.590707 0 0
0.635599 0 0
0.680064 0 0
0.723537 0 0
0.765454 0 0
0.805066 0 0
0.847074 0 0
0.895567 0 0
0.946731 0 0
0.998322 0 0
1 0 0
1 0 0
1 0 0
1 0 0
1 0 0
1 0 0
1 0 0
1 0 0
1 0 0
1 0 0
1 0 0
1 0 0
1 0 0
1 0 0
1 0 0
1 0 0
1 0 0
1 0 0
1 0 0
1 0 0
1 0 0
1 0 0
1 0 0
1 0 0
1 0 0
1 0 0
1 0 0
1 0 0
1 0 0
0 0.0745403 0
0 0.0745403 0
0 0.0745403 0
0 0.0745403 0
0 0.074403 0
0 0.0730144 0
0 0.0729229 0
0 0.0738842 0
0 0.0759747 0
0 0.078294 0
0.00985733 0.0797436 0
0.0248569 0.0803388 0
0.0437476 0.0800641 0
0.0659037 0.0789502 0
0.0914321 0.076936 0
0.11989 0.0744182 0
0.151812 0.070985 0
0.186496 0.0669413 0
0.224048 0.0623178 0
0.264836 0.0565194 0
0.30782 0.050248 0
0.352514 0.0437171 0
0.398093 0.0368505 0
0.44448 0.0297856 0
0.492058 0.0224002 0
0.540597 0.0149996 0
0.58851 0.00790417 0
0.634333 0.0012665 0
0.67953 0 0
0.723812 0 0
0.766537 0 0
0.806806 0 0
0.84947 0 0
0.898604 0 0
0.950698 0 0
1 0 0
1 0 0
1 0 0
1 0 0
1 0 0
1 0 0
1 0 0
1 0 0
1 0 0
1 0 0
1 0 0
1 0 0
1 0 0
1 0 0
1 0 0
1 0 0
1 0 0
1 0 0
1 0 0
1 0 0
1 0 0
1 0 0
1 0 0
1 0 0
1 0 0
1 0 0
1 0 0
1 0 0
1 0 0
1 0 0
0 0.0907149 0
0 0.0907149 0
0 0.0907149 0
0 0.0907149 0
0 0.0905623 0
0 0.0891737 0
0 0.0894331 0
0 0.090547 0
0 0.092546 0
0 0.0953078 0
0.00543221 0.0972305 0
0.0199435 0.0984054 0
0.038529 0.0984512 0
0.0604715 0.0977646 0
0.085893 0.0963302 0
0.114321 0.0942855 0
0.145968 0.0913863 0
0.180697 0.0876478 0
0.218189 0.0832074 0
0.258869 0.0778363 0
0.30193 0.0720378 0
0.347066 0.0656443 0
0.392981 0.0590219 0
0.439567 0.052491 0
0.487663 0.0454871 0
0.536645 0.0383764 0
0.585153 0.0314794 0
0.631647 0.0249027 0
0.677623 0.0188449 0
0.722713 0.0131685 0
0.766232 0.00799573 0
0.807202 0.00341802 0
0.850446 0 0
0.90013 0 0
0.952987 0 0
1 0 0
1 0 0
1 0 0
1 0 0
1 0 0
1 0 0
1 0 0
1 0 0
1 0 0
1 0 0
1 0 0
1 0 0
1 0 0
1 0 0
1 0 0
1 0 0
1 0 0
1 0.00111391 0
1 0.00367742 0
1 0.00631724 0
1 0.00848402 0
1 0.00848402 0
1 0.00848402 0
1 0.00848402 0
1 0.00848402 0
1 0.00848402 0
1 0.00848402 0
1 0.00848402 0
1 0.00848402 0
1 0.00848402 0
0 0.108431 0
0 0.108431 0
0 0.108431 0
0 0.108431 0
0 0.108293 0
0 0.107012 0
0 0.107195 0
0 0.108431 0
0 0.110536 0
0 0.113573 0
0.000671397 0.116182 0
0.014786 0.117708 0
0.0328222 0.118334 0
0.0544289 0.118303 0
0.0797742 0.117144 0
0.108186 0.115389 0
0.139849 0.112902 0
0.174365 0.109758 0
0.21178 0.105638 0
0.252293 0.100832 0
0.295369 0.0953231 0
0.340719 0.0892805 0
0.387076 0.0830701 0
0.434272 0.0766461 0
0.482658 0.0700999 0
0.532067 0.0633402 0
0.581094 0.056733 0
0.628275 0.0505379 0
0.675105 0.0445411 0
0.721004 0.0391546 0
0.765316 0.034287 0
0.806989 0.029984 0
0.850889 0.0259556 0
0.901122 0.0212711 0
0.954696 0.0164492 0
1 0.0119783 0
1 0.00836194 0
1 0.0065919 0
1 0.00643931 0
1 0.00695811 0
1 0.00830091 0
1 0.00972 0
1 0.0111696 0
1 0.0132296 0
1 0.0148623 0
1 0.0165103 0
1 0.018555 0
1 0.0202792 0
1 0.0223697 0
1 0.0248722 0
1 0.0274205 0
1 0.0299535 0
1 0.032517 0
1 0.0353094 0
1 0.0381018 0
