LUTS/PEZ4_1.2021-07-30 17-14-53.cube
TITLE "Generated by Resolve"
LUT_3D_SIZE 5
0 0 0
0.224872 0 0
0.886122 0 0
1 0 0
1 0 0
0 0.131365 0
0.120424 0.130587 0
0.892638 0.0332952 0
1 0.0129244 0
1 0.00352483 0
0 0.676509 0
0 0.736416 0
0.671138 0.707942 0
1 0.68304 0
1 0.655711 0
0 1 0
0 1 0
0.511284 1 0
1 1 0
1 1 0
0 1 0
0 1 0
0.377798 1 0
1 1 0
1 1 0
0 0 0.266575
0.202914 0 0.211368
0.874495 0 0.0143893
1 0 0
1 0 0
0 0.125307 0.128084
0.12282 0.133181 0.135683
0.903792 0.0428473 0.0449378
1 0.0213779 0.0204929
1 0.00810254 0.00680552
0 0.69247 0
0 0.756832 0
0.690654 0.728084 0
1 0.70248 0
1 0.671473 0
0 1 0
0 1 0
0.517205 1 0
1 1 0
1 1 0
0 1 0
0 1 0
0.388663 1 0
1 1 0
1 1 0
0 0 1
0.12752 0 0.988495
0.804196 0 0.828672
1 0 0.70692
1 0 0.637476
0 0.0755016 0.95697
0.084123 0.0939193 0.974365
0.863035 0.0157168 0.894514
1 0.00581369 0.846418
1 0.000366217 0.813916
0 0.670924 0.68014
0 0.736309 0.745205
0.67451 0.712795 0.721584
1 0.685115 0.693614
1 0.652964 0.66125
0 1 0.547524
0 1 0.605554
0.475593 1 0.531441
1 1 0.419928
1 1 0.38172
0 1 0.399313
0 1 0.449302
0.357778 1 0.420142
1 1 0.30605
1 1 0.275242
0 0 1
0.0802319 0 1
0.75584 0 1
1 0 1
1 0 1
0 0.0510719 1
0.0660716 0.0753796 1
0.839124 0.010132 1
1 0.00267033 1
1 0 1
0 0.654429 1
0 0.72282 1
0.661234 0.699901 1
1 0.666438 1
1 0.630884 1
0 1 1
0 1 1
0.433875 1 1
1 1 1
1 1 1
0 1 1
0 1 1
0.31136 1 1
1 1 1
1 1 1
0 0 1
0.0590982 0 1
0.725216 0 1
1 0 1
1 0 1
0 0.0381018 1
0.0553597 0.0632944 1
0.822324 0.00703441 1
1 0 1
1 0 1
0 0.643977 1
0 0.712123 1
0.649836 0.688762 1
1 0.652049 1
1 0.614466 1
0 1 1
0 1 1
0.416648 1 1
1 1 1
1 1 1
0 1 1
0 1 1
0.298558 1 1
1 1 1
1 1 1
