LUTS/PEZ4_1.2021-07-30 17-14-53.cube
TITLE "Generated by Resolve"
LUT_3D_SIZE 65
0 0 0
0 0 0
0 0 0
0.00125124 0 0
0.0052491 0 0
0.00968948 0 0
0.0225834 0 0
0.0360113 0 0
0.0479438 0 0
0.0604257 0 0
0.0756847 0 0
0.09308 0 0
0.114687 0 0
0.138918 0 0
0.165118 0 0
0.194003 0 0
0.224872 0 0
0.257481 0 0
0.291997 0 0
0.328908 0 0
0.367529 0 0
0.407492 0 0
0.448661 0 0
0.490959 0 0
0.533837 0 0
0.577386 0 0
0.621668 0 0
0.666194 0 0
0.711177 0 0
0.756909 0 0
0.80293 0 0
0.847578 0 0
0.886122 0 0
0.91812 0 0
0.950927 0 0
0.980789 0 0
0.995911 0 0
1 0 0
1 0 0
1 0 0
1 0 0
1 0 0
1 0 0
1 0 0
1 0 0
1 0 0
1 0 0
1 0 0
1 0 0
1 0 0
1 0 0
1 0 0
1 0 0
1 0 0
1 0 0
1 0 0
1 0 0
1 0 0
1 0 0
1 0 0
1 0 0
1 0 0
1 0 0
1 0 0
1 0 0
0 0 0
0 0 0
0 0 0
0.000900282 0 0
0.00442512 0 0
0.00825513 0 0
0.0214389 0 0
0.0352178 0 0
0.0474861 0 0
0.060441 0 0
0.0761883 0 0
0.0940566 0 0
0.115785 0 0
0.140291 0 0
0.166751 0 0
0.195804 0 0
0.226917 0 0
0.259754 0 0
0.294545 0 0
0.331624 0 0
0.370336 0 0
0.410544 0 0
0.451972 0 0
0.494484 0 0
0.537575 0 0
0.581338 0 0
0.625803 0 0
0.670283 0 0
0.715496 0 0
0.761471 0 0
0.807691 0 0
0.85185 0 0
0.889723 0 0
0.921859 0 0
0.954696 0 0
0.984451 0 0
0.99733 0 0
1 0 0
1 0 0
1 0 0
1 0 0
1 0 0
1 0 0
1 0 0
1 0 0
1 0 0
1 0 0
1 0 0
1 0 0
1 0 0
1 0 0
1 0 0
1 0 0
1 0 0
1 0 0
1 0 0
1 0 0
1 0 0
1 0 0
1 0 0
1 0 0
1 0 0
1 0 0
1 0 0
1 0 0
0 0 0
0 0 0
0 0 0
0.000427253 0 0
0.00320439 0 0
0.00627146 0 0
0.018677 0 0
0.0324407 0 0
0.0445258 0 0
0.0571908 0 0
0.072694 0 0
0.0905776 0 0
0.112688 0 0
0.137606 0 0
0.165042 0 0
0.195071 0 0
0.22742 0 0
0.260456 0 0
0.295445 0 0
0.33254 0 0
0.371649 0 0
0.411872 0 0
0.453529 0 0
0.496239 0 0
0.539544 0 0
0.583307 0 0
0.627955 0 0
0.672618 0 0
0.718044 0 0
0.76405 0 0
0.810468 0 0
0.854414 0 0
0.891936 0 0
0.924315 0 0
0.957061 0 0
0.986816 0 0
0.998337 0 0
1 0 0
1 0 0
1 0 0
1 0 0
1 0 0
1 0 0
1 0 0
1 0 0
1 0 0
1 0 0
1 0 0
1 0 0
1 0 0
1 0 0
1 0 0
1 0 0
1 0 0
1 0 0
1 0 0
1 0 0
1 0 0
1 0 0
1 0 0
1 0 0
1 0 0
1 0 0
1 0 0
1 0 0
0 0.000183108 0
0 0.000198367 0
0 0.000122072 0
7.62951e-05 6.10361e-05 0
0.00202945 1.5259e-05 0
0.00416571 0 0
0.0153811 0 0
0.0289921 0 0
0.0410468 0 0
0.0533913 0 0
0.0685435 0 0
0.0856489 0 0
0.107347 0 0
0.131899 0 0
0.158785 0 0
0.188586 0 0
0.220737 0 0
0.254994 0 0
0.291279 0 0
0.330205 0 0
0.370932 0 0
0.412253 0 0
0.454124 0 0
0.497032 0 0
0.540337 0 0
0.584283 0 0
0.628946 0 0
0.673991 0 0
0.719417 0 0
0.765637 0 0
0.812253 0 0
0.856123 0 0
0.893309 0 0
0.92604 0 0
0.958633 0 0
0.987686 0 0
0.999039 0 0
1 0 0
1 0 0
1 0 0
1 0 0
1 0 0
1 0 0
1 0 0
1 0 0
1 0 0
1 0 0
1 0 0
1 0 0
1 0 0
1 0 0
1 0 0
1 0 0
1 0 0
1 0 0
1 0 0
1 0 0
1 0 0
1 0 0
1 0 0
1 0 0
1 0 0
1 0 0
1 0 0
1 0 0
0 0.00163272 0
0 0.00154116 0
0 0.00120546 0
0 0.000823987 0
0.00105287 0.00047303 0
0.00233463 0.000122072 0
0.0118868 1.5259e-05 0
0.0251621 0 0
0.0371862 0 0
0.0492103 0 0
0.0638743 0 0
0.0803388 0 0
0.101518 0 0
0.125444 0 0
0.151781 0 0
0.181186 0 0
0.212985 0 0
0.246937 0 0
0.283131 0 0
0.321599 0 0
0.362081 0 0
0.404303 0 0
0.447684 0 0
0.492439 0 0
0.53785 0 0
0.58468 0 0
0.629526 0 0
0.674571 0 0
0.720195 0 0
0.766629 0 0
0.813458 0 0
0.85716 0 0
0.894423 0 0
0.927184 0 0
0.959808 0 0
0.98819 0 0
0.999603 0 0
1 0 0
1 0 0
1 0 0
1 0 0
1 0 0
1 0 0
1 0 0
1 0 0
1 0 0
1 0 0
1 0 0
1 0 0
1 0 0
1 0 0
1 0 0
1 0 0
1 0 0
1 0 0
1 0 0
1 0 0
1 0 0
1 0 0
1 0 0
1 0 0
1 0 0
1 0 0
1 0 0
1 0 0
0 0.00317388 0
0 0.00311284 0
0 0.00247196 0
0 0.00173953 0
0.000259403 0.00105287 0
0.000671397 0.000350958 0
0.00814832 4.57771e-05 0
0.0210117 1.5259e-05 0
0.0330663 0 0
0.0447395 0 0
0.0587625 0 0
0.0744793 0 0
0.0950484 0 0
0.118669 1.5259e-05 0
0.144717 1.5259e-05 0
0.1738 1.5259e-05 0
0.205097 0 0
0.238743 0 0
0.274464 0 0
0.312428 0 0
0.352529 0 0
0.394232 0 0
0.437079 0 0
0.481147 0 0
0.525826 0 0
0.572045 0 0
0.619516 0 0
0.667674 0 0
0.716335 0 0
0.765393 0 0
0.814054 0 0
0.857847 0 0
0.894972 0 0
0.927916 0 0
0.960723 0 0
0.98854 0 0
1 0 0
1 0 0
1 0 0
1 0 0
1 0 0
1 0 0
1 0 0
1 0 0
1 0 0
1 0 0
1 0 0
1 0 0
1 0 0
1 0 0
1 0 0
1 0 0
1 0 0
1 0 0
1 0 0
1 0 0
1 0 0
1 0 0
1 0 0
1 0 0
1 0 0
1 0 0
1 0 0
1 0 0
1 0 0
0 0.0105745 0
0 0.0110323 0
0 0.0103456 0
0 0.00926223 0
3.0518e-05 0.00813306 0
7.62951e-05 0.00694286 0
0.00526436 0.00598154 0
0.0173648 0.00527962 0
0.0291295 0.00459297 0
0.040589 0.00393683 0
0.0539864 0.00314336 0
0.0687877 0.00230411 0
0.0886549 0.0012665 0
0.111345 0.000381476 0
0.137301 4.57771e-05 0
0.165957 3.0518e-05 0
0.196826 1.5259e-05 0
0.23006 0 0
0.265385 0 0
0.302693 0 0
0.342077 0 0
0.383322 0 0
0.426169 0 0
0.469703 0 0
0.513603 0 0
0.558648 0 0
0.606226 0 0
0.655055 0 0
0.704585 0 0
0.75433 0 0
0.804242 0 0
0.851209 0 0
0.891234 0 0
0.926131 0 0
0.960098 0 0
0.988693 0 0
1 0 0
1 0 0
1 0 0
1 0 0
1 0 0
1 0 0
1 0 0
1 0 0
1 0 0
1 0 0
1 0 0
1 0 0
1 0 0
1 0 0
1 0 0
1 0 0
1 0 0
1 0 0
1 0 0
1 0 0
1 0 0
1 0 0
1 0 0
1 0 0
1 0 0
1 0 0
1 0 0
1 0 0
1 0 0
0 0.0211948 0
0 0.0217441 0
0 0.0211948 0
0 0.0200504 0
0 0.0187381 0
1.5259e-05 0.0173342 0
0.00308232 0.0160067 0
0.0141756 0.0151369 0
0.0255589 0.0142672 0
0.0370031 0.013611 0
0.0500801 0.0125887 0
0.0644388 0.0114595 0
0.0836347 0.00944533 0
0.105364 0.00723278 0
0.130678 0.00479133 0
0.158572 0.00248722 0
0.188708 0.000976577 0
0.22118 0.000228885 0
0.256062 9.15541e-05 0
0.292805 1.5259e-05 0
0.331197 0 0
0.371542 0 0
0.414206 0 0
0.458274 0 0
0.503349 0 0
0.549249 0 0
0.596536 0 0
0.645151 0 0
0.694377 0 0
0.743984 0 0
0.79379 0 0
0.84184 0 0
0.883818 0 0
0.919554 0 0
0.954162 0 0
0.985428 0 0
1 0 0
1 0 0
1 0 0
1 0 0
1 0 0
1 0 0
1 0 0
1 0 0
1 0 0
1 0 0
1 0 0
1 0 0
1 0 0
1 0 0
1 0 0
1 0 0
1 0 0
1 0 0
1 0 0
1 0 0
1 0 0
1 0 0
1 0 0
1 0 0
1 0 0
1 0 0
1 0 0
1 0 0
1 0 0
0 0.031632 0
0 0.0321813 0
0 0.0318151 0
0 0.0305638 0
0 0.0290379 0
0 0.0276341 0
0.00122072 0.0260929 0
0.01149 0.0250095 0
0.0222782 0.0239567 0
0.0336614 0.0232548 0
0.0462043 0.0221714 0
0.0602274 0.020737 0
0.0783551 0.0180819 0
0.0993057 0.014725 0
0.123827 0.0103304 0
0.151003 0.00593576 0
0.180407 0.00259403 0
0.212253 0.000686656 0
0.246906 0.000350958 0
0.283864 0.000106813 0
0.322728 1.5259e-05 0
0.363272 0 0
0.40557 0 0
0.449302 0 0
0.494163 0 0
0.540002 0 0
0.587304 0 0
0.63621 0 0
0.686061 0 0
0.736553 0 0
0.787137 0 0
0.836088 0 0
0.879011 0 0
0.915206 0 0
0.949798 0 0
0.982681 0 0
1 0 0
1 0 0
1 0 0
1 0 0
1 0 0
1 0 0
1 0 0
1 0 0
1 0 0
1 0 0
1 0 0
1 0 0
1 0 0
1 0 0
1 0 0
1 0 0
1 0 0
1 0 0
1 0 0
1 0 0
1 0 0
1 0 0
1 0 0
1 0 0
1 0 0
1 0 0
1 0 0
1 0 0
1 0 0
0 0.0415503 0
0 0.0421759 0
0 0.0422065 0
0 0.0408789 0
0 0.0393835 0
0 0.0378119 0
0 0.0361028 0
0.00924697 0.0348669 0
0.0195773 0.0335088 0
0.0307012 0.0326696 0
0.0428321 0.0314488 0
0.0562295 0.0297704 0
0.0734112 0.0270237 0
0.0936294 0.023621 0
0.118151 0.0192874 0
0.14522 0.0144808 0
0.174655 0.0096437 0
0.20621 0.00547799 0
0.240299 0.0028687 0
0.276677 0.00112917 0
0.315267 0.000350958 0
0.355566 7.62951e-05 0
0.397955 0 0
0.442176 0 0
0.487678 0 0
0.534356 0 0
0.582147 0 0
0.63122 0 0
0.68101 0 0
0.731197 0 0
0.781857 0 0
0.831174 0 0
0.875212 0 0
0.912123 0 0
0.94725 0 0
0.981155 0 0
1 0 0
1 0 0
1 0 0
1 0 0
1 0 0
1 0 0
1 0 0
1 0 0
1 0 0
1 0 0
1 0 0
1 0 0
1 0 0
1 0 0
1 0 0
1 0 0
1 0 0
1 0 0
1 0 0
1 0 0
1 0 0
1 0 0
1 0 0
1 0 0
1 0 0
1 0 0
1 0 0
1 0 0
1 0 0
0 0.0515755 0
0 0.0522621 0
0 0.0526284 0
0 0.0513466 0
0 0.0497749 0
0 0.0479896 0
0 0.046067 0
0.00650034 0.0445106 0
0.0155795 0.0431373 0
0.0267033 0.0421149 0
0.0385443 0.0411383 0
0.0518654 0.0393683 0
0.0682994 0.0367437 0
0.0876173 0.0334783 0
0.112139 0.0290684 0
0.139483 0.0241093 0
0.169482 0.0187533 0
0.201709 0.0132906 0
0.236789 0.00802625 0
0.273762 0.00404364 0
0.312718 0.0019379 0
0.353521 0.00111391 0
0.395926 0.000549325 0
0.439689 0.00015259 0
0.48481 0 0
0.531212 0 0
0.57879 0 0
0.627619 0 0
0.677165 0 0
0.727947 0 0
0.779217 0 0
0.829801 0 0
0.875029 0 0
0.913039 0 0
0.947829 0 0
0.981064 0 0
1 0 0
1 0 0
1 0 0
1 0 0
1 0 0
1 0 0
1 0 0
1 0 0
1 0 0
1 0 0
1 0 0
1 0 0
1 0 0
1 0 0
1 0 0
1 0 0
1 0 0
1 0 0
1 0 0
1 0 0
1 0 0
1 0 0
1 0 0
1 0 0
1 0 0
1 0 0
1 0 0
1 0 0
1 0 0
0 0.0618143 0
0 0.0625772 0
0 0.0630198 0
0 0.06215 0
0 0.0603647 0
0 0.05832 0
0 0.0559701 0
0.00370794 0.0541238 0
0.0108186 0.0525978 0
0.0210727 0.0516823 0
0.0328832 0.0508431 0
0.0466926 0.0496071 0
0.0629435 0.0476997 0
0.0823529 0.0450446 0
0.107012 0.0411688 0
0.13434 0.0367437 0
0.164614 0.0317235 0
0.197528 0.0260471 0
0.232883 0.0198825 0
0.270359 0.013901 0
0.309865 0.00891127 0
0.351202 0.00549325 0
0.394293 0.00285344 0
0.43856 0.000961318 0
0.483818 3.0518e-05 0
0.530755 0 0
0.579263 0 0
0.628641 0 0
0.67892 0 0
0.729854 0 0
0.781155 0 0
0.831479 0 0
0.877104 0 0
0.915267 0 0
0.949813 0 0
0.981994 0 0
1 0 0
1 0 0
1 0 0
1 0 0
1 0 0
1 0 0
1 0 0
1 0 0
1 0 0
1 0 0
1 0 0
1 0 0
1 0 0
1 0 0
1 0 0
1 0 0
1 0 0
1 0 0
1 0 0
1 0 0
1 0 0
1 0 0
1 0 0
1 0 0
1 0 0
1 0 0
1 0 0
1 0 0
1 0 0
0 0.0725109 0
0 0.0732738 0
0 0.0738079 0
0 0.0735485 0
0 0.071809 0
0 0.0698863 0
0 0.0677043 0
0.00154116 0.0657969 0
0.00639353 0.0644999 0
0.0148318 0.0635538 0
0.0265507 0.0629435 0
0.0404212 0.0620737 0
0.0563821 0.0607309 0
0.0761578 0.0583658 0
0.100557 0.055024 0
0.128191 0.0509041 0
0.158785 0.046128 0
0.192462 0.0406195 0
0.228443 0.0346227 0
0.26659 0.0281987 0
0.306645 0.0218357 0
0.348638 0.0158236 0
0.392432 0.0103761 0
0.437583 0.00604257 0
0.484092 0.00361639 0
0.531395 0.002533 0
0.580285 0.00172427 0
0.63032 0.00102235 0
0.681117 0.000442512 0
0.73254 9.15541e-05 0
0.784314 0 0
0.835126 0 0
0.881239 0 0
0.919738 0 0
0.954147 0 0
0.984771 0 0
1 0 0
1 0 0
1 0 0
1 0 0
1 0 0
1 0 0
1 0 0
1 0 0
1 0 0
1 0 0
1 0 0
1 0 0
1 0 0
1 0 0
1 0 0
1 0 0
1 0 0
1 0 0
1 0 0
1 0 0
1 0 0
1 0 0
1 0 0
1 0 0
1 0 0
1 0 0
1 0 0
1 0 0
1 0 0
0 0.0836652 0
0 0.0845045 0
0 0.0851148 0
0 0.0854505 0
0 0.0838026 0
0 0.082002 0
0 0.0803235 0
0.000213626 0.0784772 0
0.00268559 0.0775769 0
0.00807202 0.0769513 0
0.0196384 0.0767834 0
0.0332799 0.0763409 0
0.0488746 0.0755169 0
0.0687877 0.0737621 0
0.0927138 0.070985 0
0.120043 0.0675364 0
0.151171 0.063035 0
0.18526 0.0581674 0
0.221958 0.0526894 0
0.260777 0.0467079 0
0.301717 0.0404517 0
0.34464 0.033814 0
0.38938 0.0268559 0
0.435477 0.0201267 0
0.482689 0.0145571 0
0.531136 0.0104372 0
0.580865 0.00701915 0
0.631678 0.00407416 0
0.683314 0.0016022 0
0.735332 0.000396735 0
0.787533 0 0
0.838773 0 0
0.885557 0 0
0.924605 0 0
0.958541 0 0
0.987793 0 0
1 0 0
1 0 0
1 0 0
1 0 0
1 0 0
1 0 0
1 0 0
1 0 0
1 0 0
1 0 0
1 0 0
1 0 0
1 0 0
1 0 0
1 0 0
1 0 0
1 0 0
1 0 0
1 0 0
