LUTS/PEZ4-h_1.2021-07-30 17-14-53.cube
TITLE "Generated by Resolve"
LUT_3D_SIZE 9
0 0 0
0.0202792 0 0
0.189914 0 0
0.4981 0 0
0.813291 0 0
1 0 0
1 0 0
1 0 0
1 0 0
0 0.0370336 0
0.0011902 0.0365759 0
0.164767 0.0200046 0
0.49575 0 0
0.836194 0 0
1 0 0
1 0 0
1 0 0
1 0 0
0 0.172656 0
0 0.175814 0
0.117601 0.188724 0
0.462882 0.15671 0
0.848615 0.119066 0
1 0.109438 0
1 0.127459 0
1 0.147387 0
1 0.147387 0
0 0.431556 0
0 0.438254 0
0.0420386 0.476478 0
0.383246 0.474159 0
0.800702 0.448676 0
1 0.448005 0
1 0.472251 0
1 0.49305 0
1 0.49305 0
0 0.778622 0
0 0.786664 0
0.00309758 0.830442 0
0.315755 0.84622 0
0.732128 0.823377 0
1 0.806989 0
1 0.824231 0
1 0.836851 0
1 0.836851 0
0 1 0
0 1 0
0 1 0
0.271397 1 0
0.668467 1 0
1 1 0
1 1 0
1 1 0
1 1 0
0 1 0
0 1 0
0.0178225 1 0
0.28719 1 0
0.679057 1 0
1 1 0
1 1 0
1 1 0
1 1 0
0 1 0
0 1 0
0.031342 1 0
0.287816 1 0
0.645563 1 0
1 1 0
1 1 0
1 1 0
1 1 0
0 1 0
0 1 0
0.0366522 1 0
0.296513 1 0
0.65301 1 0
1 1 0
1 1 0
1 1 0
1 1 0
0 0 0.0719005
0.0141909 0 0.0681163
0.184436 0 0.0197604
0.494957 0 0
0.813046 0 0
1 0 0
1 0 0
1 0 0
1 0 0
0 0.0356298 0.0357214
0.000839246 0.0360113 0.0359808
0.17055 0.0204929 0.0205997
0.503182 0 0
0.843214 0 0
1 0 0
1 0 0
1 0 0
1 0 0
0 0.176181 0
0 0.179522 0
0.120195 0.19382 0.00444038
0.473259 0.160433 0
0.858961 0.123598 0
1 0.115114 0
1 0.134768 0
1 0.155764 0
1 0.155764 0
0 0.435859 0
0 0.442878 0
0.042649 0.483558 0
0.387335 0.479774 0
0.807553 0.452598 0
1 0.452079 0
1 0.477501 0
1 0.499031 0
1 0.499031 0
0 0.782513 0
0 0.790402 0
0.00434882 0.835157 0
0.316503 0.850843 0
0.735271 0.826581 0
1 0.808667 0
1 0.825345 0
1 0.838132 0
1 0.838132 0
0 1 0
0 1 0
0 1 0
0.269032 1 0
0.667262 1 0
1 1 0
1 1 0
1 1 0
1 1 0
0 1 0
0 1 0
0.0182193 1 0
0.284199 1 0
0.674525 1 0
1 1 0
1 1 0
1 1 0
1 1 0
0 1 0
0 1 0
0.0317693 1 0
0.275242 1 0
0.624872 1 0
1 1 0
1 1 0
1 1 0
1 1 0
0 1 0
0 1 0
0.0368505 1 0
0.28278 1 0
0.631342 1 0
1 1 0
1 1 0
1 1 0
1 1 0
0 0 0.320928
0 0 0.317174
0.158556 0 0.24744
0.474098 0 0.146532
0.803021 0 0.0660716
1 0 0.0191043
1 0 0.0241245
1 0 0.0488441
1 0 0.0488441
0 0.022446 0.258915
0 0.0233616 0.260792
0.155932 0.0131075 0.2421
0.493996 0 0.163165
0.838666 0 0.0940719
1 0 0.0600137
1 0 0.074403
1 0 0.10219
1 0 0.10219
0 0.172412 0.172656
0 0.176135 0.176272
0.115877 0.195514 0.195361
0.484596 0.162356 0.162448
0.870771 0.12961 0.129641
1 0.123796 0.123827
1 0.143526 0.143633
1 0.163638 0.163729
1 0.163638 0.163729
0 0.444175 0.0733349
0 0.451347 0.0760662
0.0501717 0.494545 0.109133
0.397543 0.492622 0.115648
0.825803 0.465461 0.107942
1 0.464988 0.117205
1 0.490288 0.134524
1 0.510521 0.146563
1 0.510521 0.146563
0 0.794812 0.0224918
0 0.803418 0.0271763
0.0165103 0.849897 0.0644694
0.325261 0.865766 0.0859388
0.746868 0.839551 0.072694
1 0.818158 0.0672007
1 0.834897 0.0806592
1 0.846876 0.0876783
1 0.846876 0.0876783
0 1 0.0216831
0 1 0.024094
0.00830091 1 0.0475776
0.273136 1 0.0634012
0.672099 1 0.045594
1 1 0.0359655
1 1 0.0447242
1 1 0.0491035
1 1 0.0491035
0 1 0.03682
0 1 0.0394598
0.027451 1 0.0654612
0.28867 1 0.0764019
0.676814 1 0.0557107
1 1 0.0335546
1 1 0.0188907
1 1 0.0187228
1 1 0.0187228
0 1 0.049836
0 1 0.0516823
0.0390021 1 0.076112
0.269703 1 0.0727092
0.614054 1 0.0389105
1 1 0.0128023
1 1 0.00233463
1 1 0.00238041
1 1 0.00238041
0 1 0.0585489
0 1 0.0583963
0.0436255 1 0.0818647
0.276997 1 0.0760204
0.620691 1 0.041062
1 1 0.014435
1 1 0.00357061
1 1 0.00309758
1 1 0.00309758
0 0 0.711147
0 0 0.705013
0.121141 0 0.638071
0.43534 0 0.531823
0.775677 0 0.436652
1 0 0.384619
1 0 0.394537
1 0 0.434119
1 0 0.434119
0 0 0.650492
0 0 0.652384
0.126085 0 0.638758
0.460792 0 0.558328
0.813993 0 0.476081
1 0 0.435264
1 0 0.453346
1 0 0.492607
1 0 0.492607
0 0.153536 0.558801
0 0.157549 0.566873
0.107546 0.177676 0.598352
0.465782 0.151034 0.565667
0.862318 0.120211 0.512184
1 0.116335 0.497765
1 0.136706 0.523278
1 0.155947 0.551431
1 0.155947 0.551431
0 0.435294 0.435355
0 0.442573 0.442176
0.0496223 0.486442 0.48632
0.383047 0.489662 0.489555
0.832822 0.460166 0.460151
1 0.461646 0.461387
1 0.486152 0.486061
1 0.505013 0.504982
1 0.505013 0.504982
0 0.79472 0.34905
0 0.802563 0.356619
0.0189975 0.848173 0.397818
0.316945 0.867811 0.40528
0.743465 0.839612 0.371572
1 0.814664 0.359136
1 0.829709 0.382727
1 0.840558 0.396658
1 0.840558 0.396658
0 1 0.319585
0 1 0.323583
0.00936904 1 0.345434
0.266606 1 0.347051
0.665019 1 0.310216
1 1 0.283207
1 1 0.29691
1 1 0.306447
1 1 0.306447
0 1 0.342916
0 1 0.344839
0.0262303 1 0.365393
0.280262 1 0.361318
0.665415 1 0.315877
1 1 0.256062
1 1 0.221302
1 1 0.221576
1 1 0.221576
0 1 0.361883
0 1 0.359274
0.0349889 1 0.365789
0.253513 1 0.330404
0.599237 1 0.264607
1 1 0.203143
1 1 0.174548
1 1 0.174624
1 1 0.174624
0 1 0.378012
0 1 0.373037
0.0388342 1 0.376394
0.260182 1 0.337713
0.605982 1 0.270863
1 1 0.208957
1 1 0.177935
1 1 0.175982
1 1 0.175982
0 0 1
0 0 1
0.090013 0 0.997238
0.39855 0 0.910704
0.746975 0 0.83006
1 0 0.7879
1 0 0.799115
1 0 0.833387
1 0 0.833387
0 0 1
0 0 1
0.101244 0 1
0.428595 0 0.944991
0.786282 0 0.871702
1 0 0.835203
1 0 0.853498
1 0 0.889235
1 0 0.889235
0 0.13492 0.953307
0 0.139666 0.961685
0.0955825 0.162463 0.993576
0.442649 0.141894 0.971511
0.844297 0.110323 0.930983
1 0.106691 0.917906
1 0.127153 0.939605
1 0.146441 0.963912
1 0.146441 0.963912
0 0.421683 0.858503
0 0.430076 0.86595
0.0488136 0.473075 0.91429
0.383886 0.476524 0.929946
0.82121 0.450492 0.912383
1 0.450553 0.90071
1 0.475349 0.917494
1 0.494148 0.93228
1 0.494148 0.93228
0 0.784131 0.784375
0 0.793072 0.792844
0.0164797 0.83743 0.837171
0.307408 0.855711 0.85568
0.719554 0.829374 0.829358
1 0.798505 0.798383
1 0.814603 0.814466
1 0.825391 0.82533
1 0.825391 0.82533
0 1 0.752316
0 1 0.756191
0.00192264 1 0.778668
0.251148 1 0.784817
0.642252 1 0.745418
1 1 0.704387
1 1 0.719356
1 1 0.727687
1 1 0.727687
0 1 0.77258
0 1 0.773495
0.0167239 1 0.79234
0.262455 1 0.790753
0.63888 1 0.739712
1 1 0.657755
1 1 0.609949
1 1 0.612512
1 1 0.612512
0 1 0.788663
0 1 0.784512
0.0215915 1 0.783093
0.227741 1 0.74374
0.570581 1 0.673228
1 1 0.586496
1 1 0.540063
1 1 0.541558
1 1 0.541558
0 1 0.802747
0 1 0.796445
0.0249332 1 0.791699
0.233722 1 0.749889
0.577325 1 0.679194
1 1 0.594888
1 1 0.544823
1 1 0.541009
1 1 0.541009
0 0 1
0 0 1
0.0731823 0 1
0.378546 0 1
0.731472 0 1
1 0 1
1 0 1
1 0 1
1 0 1
0 0 1
0 0 1
0.0906539 0 1
0.414069 0 1
0.772625 0 1
1 0 1
1 0 1
1 0 1
1 0 1
0 0.126284 1
0 0.131792 1
0.0913252 0.157198 1
0.43473 0.139223 1
0.835752 0.109483 1
1 0.104189 1
1 0.123507 1
1 0.143069 1
1 0.143069 1
0 0.418128 1
0 0.425849 1
0.0507362 0.469657 1
0.384298 0.474617 1
0.81178 0.451148 1
1 0.446143 1
1 0.468894 1
1 0.487343 1
1 0.487343 1
0 0.78117 1
0 0.78941 1
0.0184329 0.832166 1
0.309117 0.847944 1
0.721462 0.81857 1
1 0.787457 1
1 0.80296 1
1 0.813642 1
1 0.813642 1
0 1 1
0 1 1
0 1 1
0.245411 1 1
0.63212 1 1
1 1 1
1 1 1
1 1 1
1 1 1
0 1 1
0 1 1
0.0113375 1 1
0.250675 1 1
0.617563 1 1
1 1 1
1 1 0.995499
1 1 0.997787
1 1 0.997787
0 1 1
0 1 1
0.0110781 1 1
0.207935 1 1
0.546242 1 1
1 1 0.978103
1 1 0.93254
1 1 0.934142
1 1 0.934142
0 1 1
0 1 1
0.013962 1 1
0.213428 1 1
0.553201 1 1
1 1 0.983764
1 1 0.936782
1 1 0.932158
1 1 0.932158
0 0 1
0 0 1
0.0672618 0 1
0.370733 0 1
0.726894 0 1
1 0 1
1 0 1
1 0 1
1 0 1
0 0 1
0 0 1
0.0898756 0 1
0.411963 0 1
0.771084 0 1
1 0 1
1 0 1
1 0 1
1 0 1
0 0.126467 1
0 0.132494 1
0.093019 0.158724 1
0.435935 0.141833 1
0.835416 0.112932 1
1 0.10695 1
1 0.126223 1
1 0.145129 1
1 0.145129 1
0 0.418784 1
0 0.427543 1
0.0543374 0.472526 1
0.388724 0.478523 1
0.812116 0.45684 1
1 0.45066 1
1 0.472068 1
1 0.488991 1
1 0.488991 1
0 0.783505 1
0 0.792767 1
0.0234226 0.835721 1
0.317098 0.849867 1
0.726162 0.820691 1
1 0.790188 1
1 0.802228 1
1 0.812314 1
1 0.812314 1
0 1 1
0 1 1
0.0015259 1 1
0.250217 1 1
0.639124 1 1
1 1 1
1 1 1
1 1 1
1 1 1
0 1 1
0 1 1
0.0118868 1 1
0.248142 1 1
0.608759 1 1
1 1 1
1 1 1
1 1 1
1 1 1
0 1 1
0 1 1
0.00561532 1 1
0.198077 1 1
0.532113 1 1
1 1 1
1 1 1
1 1 1
1 1 1
0 1 1
0 1 1
0.00801099 1 1
0.20267 1 1
0.537743 1 1
1 1 1
1 1 1
1 1 1
1 1 1
0 0 1
0 0 1
0.0641947 0 1
0.369116 0 1
0.727047 0 1
1 0 1
1 0 1
1 0 1
1 0 1
0 0 1
0 0 1
0.0901961 0 1
0.412543 0 1
0.772274 0 1
1 0 1
1 0 1
1 0 1
1 0 1
0 0.127947 1
0 0.134615 1
0.0953384 0.161364 1
0.438514 0.144762 1
0.837003 0.116716 1
1 0.110536 1
1 0.129854 1
1 0.148135 1
1 0.148135 1
0 0.421393 1
0 0.430838 1
0.0575418 0.476173 1
0.393072 0.482033 1
0.814008 0.46096 1
1 0.454505 1
1 0.475532 1
1 0.491646 1
1 0.491646 1
0 0.786892 1
0 0.796139 1
0.0272984 0.838956 1
0.322942 0.852369 1
0.730053 0.822843 1
1 0.793164 1
1 0.803693 1
1 0.812634 1
1 0.812634 1
0 1 1
0 1 1
0.0043946 1 1
0.255131 1 1
0.645212 1 1
1 1 1
1 1 1
1 1 1
1 1 1
0 1 1
0 1 1
0.0134737 1 1
0.248325 1 1
0.605386 1 1
1 1 1
1 1 1
1 1 1
1 1 1
0 1 1
0 1 1
0.00280766 1 1
0.195132 1 1
0.527413 1 1
0.995941 1 1
1 1 1
1 1 1
1 1 1
0 1 1
0 1 1
0.00479133 1 1
0.198566 1 1
0.532235 1 1
0.999191 1 1
1 1 1
1 1 1
1 1 1
0 0 1
0 0 1
0.0680247 0 1
0.376059 0 1
0.733501 0 1
1 0 1
1 0 1
1 0 1
1 0 1
0 0 1
0 0 1
0.0954452 0 1
0.420966 0 1
0.780041 0 1
1 0 1
1 0 1
1 0 1
1 0 1
0 0.132372 1
0 0.13959 1
0.0995346 0.166293 1
0.444984 0.149615 1
0.842313 0.122133 1
1 0.116594 1
1 0.135286 1
1 0.153109 1
1 0.153109 1
0 0.427359 1
0 0.436973 1
0.0610208 0.482628 1
0.398688 0.487938 1
0.818143 0.467018 1
1 0.460624 1
1 0.480705 1
1 0.495537 1
1 0.495537 1
0 0.791867 1
0 0.801419 1
0.0308232 0.844038 1
0.32874 0.856153 1
0.734356 0.826383 1
1 0.797238 1
1 0.80705 1
1 0.815015 1
1 0.815015 1
0 1 1
0 1 1
0.00666819 1 1
0.260365 1 1
0.650858 1 1
1 1 1
1 1 1
1 1 1
1 1 1
0 1 1
0 1 1
0.0154726 1 1
0.252811 1 1
0.61088 1 1
1 1 1
1 1 1
1 1 1
1 1 1
0 1 1
0 1 1
0.00408942 1 1
0.198093 1 1
0.532082 1 1
1 1 1
1 1 1
1 1 1
1 1 1
0 1 1
0 1 1
0.00564584 1 1
0.200549 1 1
0.535485 1 1
1 1 1
1 1 1
1 1 1
1 1 1
