LUTS/PEZ4-h_1.2021-07-30 17-14-53.cube
TITLE "Generated by Resolve"
LUT_3D_SIZE 5
0 0 0
0.189914 0 0
0.813291 0 0
1 0 0
1 0 0
0 0.172656 0
0.117601 0.188724 0
0.848615 0.119066 0
1 0.127459 0
1 0.147387 0
0 0.778622 0
0.00309758 0.830442 0
0.732128 0.823377 0
1 0.824231 0
1 0.836851 0
0 1 0
0.0178225 1 0
0.679057 1 0
1 1 0
1 1 0
0 1 0
0.0366522 1 0
0.65301 1 0
1 1 0
1 1 0
0 0 0.320928
0.158556 0 0.24744
0.803021 0 0.0660716
1 0 0.0241245
1 0 0.0488441
0 0.172412 0.172656
0.115877 0.195514 0.195361
0.870771 0.12961 0.129641
1 0.143526 0.143633
1 0.163638 0.163729
0 0.794812 0.0224918
0.0165103 0.849897 0.0644694
0.746868 0.839551 0.072694
1 0.834897 0.0806592
1 0.846876 0.0876783
0 1 0.03682
0.027451 1 0.0654612
0.676814 1 0.0557107
1 1 0.0188907
1 1 0.0187228
0 1 0.0585489
0.0436255 1 0.0818647
0.620691 1 0.041062
1 1 0.00357061
1 1 0.00309758
0 0 1
0.090013 0 0.997238
0.746975 0 0.83006
1 0 0.799115
1 0 0.833387
0 0.13492 0.953307
0.0955825 0.162463 0.993576
0.844297 0.110323 0.930983
1 0.127153 0.939605
1 0.146441 0.963912
0 0.784131 0.784375
0.0164797 0.83743 0.837171
0.719554 0.829374 0.829358
1 0.814603 0.814466
1 0.825391 0.82533
0 1 0.77258
0.0167239 1 0.79234
0.63888 1 0.739712
1 1 0.609949
1 1 0.612512
0 1 0.802747
0.0249332 1 0.791699
0.577325 1 0.679194
1 1 0.544823
1 1 0.541009
0 0 1
0.0672618 0 1
0.726894 0 1
1 0 1
1 0 1
0 0.126467 1
0.093019 0.158724 1
0.835416 0.112932 1
1 0.126223 1
1 0.145129 1
0 0.783505 1
0.0234226 0.835721 1
0.726162 0.820691 1
1 0.802228 1
1 0.812314 1
0 1 1
0.0118868 1 1
0.608759 1 1
1 1 1
1 1 1
0 1 1
0.00801099 1 1
0.537743 1 1
1 1 1
1 1 1
0 0 1
0.0680247 0 1
0.733501 0 1
1 0 1
1 0 1
0 0.132372 1
0.0995346 0.166293 1
0.842313 0.122133 1
1 0.135286 1
1 0.153109 1
0 0.791867 1
0.0308232 0.844038 1
0.734356 0.826383 1
1 0.80705 1
1 0.815015 1
0 1 1
0.0154726 1 1
0.61088 1 1
1 1 1
1 1 1
0 1 1
0.00564584 1 1
0.535485 1 1
1 1 1
1 1 1
