LUTS/PEZ4_1.2021-07-30 17-14-53.cube
TITLE "Generated by Resolve"
LUT_3D_SIZE 9
0 0 0
0.0479438 0 0
0.224872 0 0
0.533837 0 0
0.886122 0 0
1 0 0
1 0 0
1 0 0
1 0 0
0 0.031632 0
0.0222782 0.0239567 0
0.180407 0.00259403 0
0.494163 0 0
0.879011 0 0
1 0 0
1 0 0
1 0 0
1 0 0
0 0.131365 0
3.0518e-05 0.132753 0
0.120424 0.130587 0
0.467765 0.0881819 0
0.892638 0.0332952 0
1 0.0192721 0
1 0.0129244 0
1 0.00730907 0
1 0.00352483 0
0 0.354849 0
0 0.375616 0
0.0205997 0.396994 0
0.355383 0.379232 0
0.810849 0.333059 0
1 0.315389 0
1 0.308461 0
1 0.300389 0
1 0.289326 0
0 0.676509 0
0 0.707408 0
0 0.736416 0
0.211856 0.742809 0
0.671138 0.707942 0
1 0.687755 0
1 0.68304 0
1 0.672145 0
1 0.655711 0
0 0.994461 0
0 1 0
0 1 0
0.150164 1 0
0.583337 1 0
1 1 0
1 1 0
1 1 0
1 0.990753 0
0 1 0
0 1 0
0 1 0
0.126467 1 0
0.511284 1 0
0.928603 1 0
1 1 0
1 1 0
1 1 0
0 1 0
0 1 0
0 1 0
0.0782177 1 0
0.446311 1 0
0.863508 1 0
1 1 0
1 1 0
1 1 0
0 1 0
0 1 0
0 1 0
0.0293431 1 0
0.377798 1 0
0.7935 1 0
1 1 0
1 1 0
1 1 0
0 0 0.0526589
0.0449836 0 0.0461891
0.218952 0 0.0207218
0.527749 0 0
0.88368 0 0
1 0 0
1 0 0
1 0 0
1 0 0
0 0.0281987 0.0286107
0.0188449 0.0204623 0.0209812
0.174975 0.000732433 0.00117494
0.491691 0 0
0.879515 0 0
1 0 0
1 0 0
1 0 0
1 0 0
0 0.13051 6.10361e-05
3.0518e-05 0.13312 1.5259e-05
0.122942 0.133196 7.62951e-05
0.473152 0.0920729 0
0.899504 0.0382544 0
1 0.0229801 0
1 0.0170138 0
1 0.0115206 0
1 0.005066 0
0 0.360723 0
0 0.382208 0
0.0247196 0.405463 0
0.363195 0.387671 0
0.820356 0.34197 0
1 0.325414 0
1 0.319066 0
1 0.311177 0
1 0.300008 0
0 0.685893 0
0 0.717494 0
0 0.747845 0
0.220768 0.75375 0
0.681666 0.719036 0
1 0.699107 0
1 0.693919 0
1 0.682216 0
1 0.665156 0
0 0.996475 0
0 1 0
0 1 0
0.158846 1 0
0.594186 1 0
1 1 0
1 1 0
1 1 0
1 0.995972 0
0 1 0
0 1 0
0 1 0
0.13257 1 0
0.519615 1 0
0.936431 1 0
1 1 0
1 1 0
1 1 0
0 1 0
0 1 0
0 1 0
0.0846265 1 0
0.455436 1 0
0.873457 1 0
1 1 0
1 1 0
1 1 0
0 1 0
0 1 0
0 1 0
0.0355688 1 0
0.387564 1 0
0.803937 1 0
1 1 0
1 1 0
1 1 0
0 0 0.266575
0.0345159 0 0.25214
0.202914 0 0.211368
0.510399 0 0.115618
0.874495 0 0.0143893
1 0 0
1 0 0
1 0 0
1 0 0
0 0.0179751 0.221561
0.00868238 0.0102083 0.209949
0.161746 0.000427253 0.173083
0.481834 0 0.0925154
0.875593 0 0.0152895
1 0 0.00128176
1 0 1.5259e-05
1 0 0
1 0 0
0 0.125307 0.128084
3.0518e-05 0.129885 0.132616
0.12282 0.133181 0.135683
0.474983 0.0950637 0.0975357
0.903792 0.0428473 0.0449378
1 0.0278325 0.0278935
1 0.0213779 0.0204929
1 0.0151064 0.0137026
1 0.00810254 0.00680552
0 0.364034 0.0128176
0 0.387518 0.0211795
0.0298314 0.411429 0.0400397
0.37023 0.395285 0.0342718
0.828244 0.349996 0.013611
1 0.334462 0.013138
1 0.328573 0.0120851
1 0.320531 0.00753796
1 0.308858 0.00573739
0 0.69247 0
0 0.725292 0
0 0.756832 0
0.229801 0.76321 0
0.690654 0.728084 0
1 0.708247 0
1 0.70248 0
1 0.689891 0
1 0.671473 0
0 0.998154 0
0 1 0
0 1 0
0.166644 1 0
0.601114 1 0
1 1 0
1 1 0
1 1 0
1 0.996704 0
0 1 0
0 1 0
0 1 0
0.137285 1 0
0.517205 1 0
0.936385 1 0
1 1 0
1 1 0
1 1 0
0 1 0
0 1 0
0 1 0
0.088838 1 0
0.454276 1 0
0.873976 1 0
1 1 0
1 1 0
1 1 0
0 1 0
0 1 0
0 1 0
0.0375219 1 0
0.388663 1 0
0.805325 1 0
1 1 0
1 1 0
1 1 0
0 0 0.657847
0.0113222 0 0.64123
0.167056 0 0.596613
0.469261 0 0.487434
0.845167 0 0.362814
1 0 0.283848
1 0 0.237888
1 0 0.205203
1 0 0.174228
0 0.000869764 0.607202
0.000228885 0.000106813 0.594018
0.12929 0 0.558953
0.451179 0 0.47361
0.854536 0 0.376623
1 0 0.321233
1 0 0.296284
1 0 0.279286
1 0 0.259586
0 0.102556 0.512688
0 0.109087 0.52253
0.105486 0.115724 0.528054
0.456565 0.080766 0.483284
0.889006 0.0316014 0.414542
1 0.0215457 0.377478
1 0.0165866 0.359701
1 0.0113527 0.344701
1 0.00540169 0.327855
0 0.352178 0.358221
0 0.375494 0.381857
0.0248417 0.400717 0.406485
0.362005 0.386847 0.392462
0.822095 0.344427 0.349996
1 0.330694 0.335927
1 0.325597 0.330831
1 0.317739 0.322988
1 0.30605 0.311269
0 0.689342 0.195102
0 0.721935 0.222324
0 0.753841 0.252995
0.228946 0.7617 0.26186
0.690303 0.727901 0.231235
1 0.708186 0.214893
1 0.702159 0.211429
1 0.689357 0.201038
1 0.671031 0.186389
0 0.999222 0.12105
0 1 0.154574
0 1 0.186206
0.167193 1 0.199573
0.599588 1 0.164813
1 1 0.120394
1 1 0.0959335
1 1 0.0862898
1 0.993591 0.075227
0 1 0.111406
0 1 0.133562
0 1 0.153521
0.136538 1 0.163378
0.503334 1 0.11078
0.928862 1 0.0492103
1 1 0.0284123
1 1 0.0200809
1 1 0.0102235
0 1 0.071046
0 1 0.0908064
0 1 0.10396
0.0909285 1 0.120577
0.443809 1 0.0821088
0.867872 1 0.0184939
1 1 0.0055848
1 1 0.00376898
1 1 0.00157168
0 1 0.0217899
0 1 0.0429236
0 1 0.0537881
0.0401312 1 0.0734112
0.381399 1 0.0492409
0.800595 1 0.0037995
1 1 0
1 1 0
1 1 0
0 0 1
0.0010071 0 0.998886
0.12752 0 0.988495
0.422995 0 0.923186
0.804196 0 0.828672
1 0 0.754665
1 0 0.70692
1 0 0.671611
1 0 0.637476
0 0 0.994598
0 0 0.991745
0.094789 0 0.975418
0.41474 0 0.922698
0.823209 0 0.848676
1 0 0.803677
1 0 0.778485
1 0 0.76025
1 0 0.738964
0 0.0755016 0.95697
0 0.0844129 0.965087
0.084123 0.0939193 0.974365
0.429343 0.0613413 0.949569
0.863035 0.0157168 0.894514
1 0.00898756 0.863157
1 0.00581369 0.846418
1 0.00267033 0.831403
1 0.000366217 0.813916
0 0.329061 0.845487
0 0.353536 0.870939
0.0152743 0.379095 0.895766
0.343252 0.367971 0.885939
0.803845 0.326863 0.844892
1 0.312993 0.82974
1 0.308415 0.824399
1 0.30045 0.815274
1 0.28867 0.801831
0 0.670924 0.68014
0 0.704082 0.713008
0 0.736309 0.745205
0.214252 0.7458 0.754528
0.67451 0.712795 0.721584
1 0.691371 0.70013
1 0.685115 0.693614
1 0.671855 0.680095
1 0.652964 0.66125
0 0.996841 0.586572
0 1 0.629465
0 1 0.662806
0.151583 1 0.673487
0.57879 1 0.630808
0.99704 1 0.56492
1 0.993271 0.525963
1 0.9906 0.508843
1 0.979019 0.492775
0 1 0.547524
0 1 0.58378
0 1 0.605554
0.117815 1 0.603479
0.475593 1 0.531441
0.906371 1 0.456062
1 1 0.419928
1 1 0.402457
1 1 0.38172
0 1 0.478767
0 1 0.511727
0 1 0.526909
0.0767834 1 0.536873
0.416968 1 0.476646
0.847257 1 0.404395
1 1 0.362799
1 1 0.348302
1 1 0.330617
0 1 0.399313
0 1 0.435477
0 1 0.449302
0.03093 1 0.465736
0.357778 1 0.420142
0.782452 1 0.349096
1 1 0.30605
1 1 0.290303
1 1 0.275242
0 0 1
0 0 1
0.0933394 0 1
0.388327 0 1
0.774563 0 1
1 0 1
1 0 1
1 0 1
1 0 0.998627
0 0 1
0 0 1
0.0694743 0 1
0.388785 0 1
0.802655 0 1
1 0 1
1 0 1
1 0 1
1 0 1
0 0.0583658 1
0 0.0690318 1
0.0718242 0.0808728 1
0.412238 0.0525368 1
0.84773 0.0117647 1
1 0.00595102 1
1 0.00373846 1
1 0.000946059 1
1 0 1
0 0.317082 1
0 0.343175 1
0.0134585 0.369253 1
0.335546 0.360433 1
0.795773 0.319936 1
1 0.304311 1
1 0.299779 1
1 0.291615 1
1 0.279042 1
0 0.659617 1
0 0.694087 1
0 0.727245 1
0.207202 0.737377 1
0.665232 0.704082 1
1 0.679988 1
1 0.672267 1
1 0.657938 1
1 0.638254 1
0 0.994034 0.997284
0 1 1
0 1 1
0.139223 1 1
0.558083 1 1
0.97612 0.994095 0.99469
1 0.976577 0.980255
1 0.966232 0.973281
1 0.953964 0.959991
0 1 1
0 1 1
0 1 1
0.0933394 1 1
0.446891 1 0.995377
0.878172 1 0.934051
1 1 0.897673
1 1 0.879789
1 1 0.858396
0 1 0.959335
0 1 0.980835
0 1 0.987762
0.0543221 1 0.987549
0.388663 1 0.951537
0.819883 1 0.881865
1 1 0.839048
1 1 0.823301
1 1 0.80441
0 1 0.878416
0 1 0.916594
0 1 0.930114
0.01738 1 0.940291
0.327565 1 0.890364
0.756115 1 0.822858
1 1 0.777829
1 1 0.760616
1 1 0.743801
0 0 1
0 0 1
0.0802319 0 1
0.370459 0 1
0.75584 0 1
1 0 1
1 0 1
1 0 1
1 0 1
0 0 1
0 0 1
0.0625772 0 1
0.377676 0 1
0.792065 0 1
1 0 1
1 0 1
1 0 1
1 0 1
0 0.0510719 1
0 0.0624857 1
0.0660716 0.0753796 1
0.403845 0.0480201 1
0.839124 0.010132 1
1 0.00477607 1
1 0.00267033 1
1 4.57771e-05 1
1 0 1
0 0.310521 1
0 0.337316 1
0.01149 0.363394 1
0.331151 0.356161 1
0.79144 0.316045 1
1 0.300465 1
1 0.296132 1
1 0.287495 1
1 0.274296 1
0 0.654429 1
0 0.689815 1
0 0.72282 1
0.20415 0.733776 1
0.661234 0.699901 1
1 0.674861 1
1 0.666438 1
1 0.651438 1
1 0.630884 1
0 0.9935 1
0 1 1
0 1 1
0.134478 1 1
0.546883 1 1
0.964523 0.9897 1
1 0.968994 1
1 0.956924 1
1 0.94284 1
0 1 1
0 1 1
0 1 1
0.0822766 1 1
0.433875 1 1
0.865202 1 1
1 1 1
1 1 1
1 1 1
0 1 1
0 1 1
0 1 1
0.0424201 1 1
0.374319 1 1
0.80444 1 1
1 1 1
1 1 1
1 1 1
0 1 1
0 1 1
0 1 1
0.00982681 1 1
0.31136 1 1
0.738445 1 1
1 1 1
1 1 1
1 1 1
0 0 1
0 0 1
0.0699779 0 1
0.355764 0 1
0.740856 0 1
1 0 1
1 0 1
1 0 1
1 0 1
0 0 1
0 0 1
0.0567788 0 1
0.368872 0 1
0.783688 0 1
1 0 1
1 0 1
1 0 1
1 0 1
0 0.04477 1
0 0.0565042 1
0.0610513 0.0696117 1
0.396048 0.0437476 1
0.831357 0.00874342 1
1 0.00328069 1
1 0.00135805 1
1 0 1
1 0 1
0 0.304784 1
0 0.332128 1
0.00877394 0.357946 1
0.326619 0.351644 1
0.786679 0.312093 1
1 0.296345 1
1 0.291814 1
1 0.282979 1
1 0.269261 1
0 0.649805 1
0 0.685405 1
0 0.718257 1
0.20032 0.729122 1
0.656352 0.695018 1
1 0.669017 1
1 0.659861 1
1 0.644236 1
1 0.623499 1
0 0.992554 1
0 0.999466 1
0 1 1
0.128725 1 1
0.538506 1 1
0.958907 0.987961 1
1 0.964034 1
1 0.951797 1
1 0.938445 1
0 1 1
0 1 1
0 1 1
0.0771191 1 1
0.425788 1 1
0.857252 1 1
1 1 1
1 1 1
1 1 1
0 1 1
0 1 1
0 1 1
0.0378119 1 1
0.367468 1 1
0.797345 1 1
1 1 1
1 1 1
1 1 1
0 1 1
0 1 1
0 1 1
0.00740063 1 1
0.305455 1 1
0.732067 1 1
1 1 1
1 1 1
1 1 1
0 0 1
0 0 1
0.0590982 0 1
0.340368 0 1
0.725216 0 1
1 0 1
1 0 1
1 0 1
1 0 1
0 0 1
0 0 1
0.0518044 0 1
0.360754 0 1
0.774914 0 1
1 0 1
1 0 1
1 0 1
1 0 1
0 0.0381018 1
0 0.0505226 1
0.0553597 0.0632944 1
0.387442 0.0388037 1
0.822324 0.00703441 1
1 0.00154116 1
1 0 1
1 0 1
1 0 1
0 0.298238 1
0 0.325872 1
0.00621042 0.351492 1
0.320943 0.34641 1
0.780713 0.307057 1
1 0.291066 1
1 0.28632 1
1 0.276997 1
1 0.262699 1
0 0.643977 1
0 0.679774 1
0 0.712123 1
0.195285 0.723262 1
0.649836 0.688762 1
1 0.661738 1
1 0.652049 1
1 0.635615 1
1 0.614466 1
0 0.991302 1
0 0.998123 1
0 1 1
0.12134 1 1
0.52871 1 1
0.952422 0.98613 1
1 0.957778 1
1 0.94583 1
1 0.932754 1
0 1 1
0 1 1
0 1 1
0.0711681 1 1
0.416648 1 1
0.848173 1 1
1 1 1
1 1 1
1 1 1
0 1 1
0 1 1
0 1 1
0.0323644 1 1
0.359457 1 1
0.788891 1 1
1 1 1
1 1 1
1 1 1
0 1 1
0 1 1
0 1 1
0.00453193 1 1
0.298558 1 1
0.724544 1 1
1 1 1
1 1 1
1 1 1
