LUTS/PEZ6-a_1.2021-07-31 01-02-05.cube
TITLE "Generated by Resolve"
LUT_3D_SIZE 9
0 0 0
0 0 0
0.0912947 0 0
0.3393 0 0
0.711681 0 0
1 0 0
1 0 0
1 0 0
1 0 0
0 0 0
0 0 0
0.12813 0 0
0.451881 0 0
0.883421 0 0
1 0 0
1 0 0
1 0 0
1 0 0
0 0.0986801 0
0 0.125704 0
0.105043 0.113939 0
0.435019 0.0835584 0
0.87425 0.0443427 0
1 0.00982681 0
1 0 0
1 0 0
1 0 0
0 0.396887 0
0 0.449104 0
0.0504005 0.442435 0
0.381964 0.414328 0
0.823743 0.376898 0
1 0.345892 0
1 0.330999 0
1 0.330724 0
1 0.341665 0
0 0.827024 0
0 0.889723 0
0 0.885756 0
0.314733 0.858442 0
0.755749 0.819806 0
1 0.787793 0
1 0.772015 0
1 0.768566 0
1 0.775128 0
0 1 0
0 1 0
0 1 0
0.26096 1 0
0.699977 1 0
1 1 0
1 1 0
1 1 0
1 1 0
0 1 0
0 1 0
0 1 0
0.230823 1 0
0.665782 1 0
1 1 0
1 1 0
1 1 0
1 1 0
0 1 0
0 1 0
0 1 0
0.214923 1 0
0.646265 1 0
1 1 0
1 1 0
1 1 0
1 1 0
0 1 0
0 1 0
0 1 0
0.21146 1 0
0.640131 1 0
1 1 0
1 1 0
1 1 0
1 1 0
0 0 0
0 0 0
0.0880446 0 0
0.340505 0 0
0.727428 0 0
1 0 0
1 0 0
1 0 0
1 0 0
0 0 0
0 0 0
0.136812 0 0
0.467109 0 0
0.902022 0 0
1 0 0
1 0 0
1 0 0
1 0 0
0 0.107836 0
0 0.134798 0
0.113985 0.123644 0
0.450828 0.0928206 0
0.893324 0.0533913 0
1 0.019791 0
1 0.00105287 0
1 0 0
1 0.0021973 0
0 0.414389 0
0 0.466117 0
0.0588083 0.459297 0
0.397498 0.431189 0
0.841337 0.392935 0
1 0.362341 0
1 0.348623 0
1 0.348592 0
1 0.360052 0
0 0.84892 0
0 0.911055 0
0 0.906645 0
0.329458 0.878386 0
0.772595 0.838087 0
1 0.806226 0
1 0.790051 0
1 0.787167 0
1 0.793484 0
0 1 0
0 1 0
0 1 0
0.275532 1 0
0.715511 1 0
1 1 0
1 1 0
1 1 0
1 1 0
0 1 0
0 1 0
0 1 0
0.244404 1 0
0.680186 1 0
1 1 0
1 1 0
1 1 0
1 1 0
0 1 0
0 1 0
0 1 0
0.228092 1 0
0.660471 1 0
1 1 0
1 1 0
1 1 0
1 1 0
0 1 0
0 1 0
0 1 0
0.224414 1 0
0.654429 1 0
1 1 0
1 1 0
1 1 0
1 1 0
0 0 0.136629
0 0 0.123964
0.0753033 0 0.0779889
0.32781 0 0.030518
0.722957 0 0
1 0 0
1 0 0
1 0 0
1 0 0
0 0 0.12639
0 0 0.151232
0.13167 0 0.136355
0.462211 0 0.103532
0.898222 0 0.063798
1 0 0.0292821
1 0 0.00895705
1 0 0.00283818
1 0 0.00898756
0 0.103563 0.0988785
0 0.130556 0.124651
0.109911 0.119493 0.113832
0.447807 0.0885939 0.084596
0.890227 0.049424 0.0469368
1 0.016083 0.0153506
1 0 0
1 0 0
1 0 0
0 0.411688 0.0418402
0 0.463615 0.0657054
0.055314 0.457176 0.0572976
0.394827 0.428672 0.029633
0.839536 0.3897 0
1 0.359747 0
1 0.345968 0
1 0.344793 0
1 0.356115 0
0 0.846845 0
0 0.908904 0
0 0.90425 0
0.326513 0.875196 0
0.76968 0.834913 0
1 0.802655 0
1 0.785657 0
1 0.78117 0
1 0.787717 0
0 1 0
0 1 0
0 1 0
0.270817 1 0
0.710903 1 0
1 1 0
1 1 0
1 1 0
1 1 0
0 1 0
0 1 0
0 1 0
0.237339 1 0
0.673381 1 0
1 1 0
1 1 0
1 1 0
1 1 0
0 1 0
0 1 0
0 1 0
0.219791 1 0
0.652476 1 0
1 1 0
1 1 0
1 1 0
1 1 0
0 1 0
0 1 0
0 1 0
0.215549 1 0
0.645457 1 0
1 1 0
1 1 0
1 1 0
1 1 0
0 0 0.466835
0 0 0.445212
0.0576181 0 0.382101
0.312688 0 0.323842
0.710338 0 0.279179
1 0 0.239673
1 0 0.214817
1 0 0.20235
1 0 0.202548
0 0 0.471824
0 0 0.515587
0.119417 0 0.500893
0.450065 0 0.466117
0.885481 0 0.423972
1 0 0.391226
1 0 0.375845
1 0 0.375509
1 0 0.38851
0 0.0920577 0.443214
0 0.118212 0.490852
0.0991379 0.107546 0.4822
0.437095 0.0771038 0.452689
0.87985 0.0379034 0.414679
1 0.00511177 0.385687
1 0 0.372992
1 0 0.374548
1 0 0.388403
0 0.4009 0.382757
0 0.452354 0.431876
0.0450446 0.446143 0.425956
0.384955 0.417594 0.398688
0.829343 0.378943 0.362158
1 0.348653 0.33286
1 0.33402 0.319295
1 0.332723 0.317662
1 0.343481 0.327932
0 0.836698 0.313298
0 0.89836 0.361746
0 0.893263 0.355474
0.315862 0.863142 0.327138
0.758923 0.82324 0.289219
1 0.790616 0.257374
1 0.773159 0.239231
1 0.767056 0.232715
1 0.772671 0.237049
0 1 0.263096
0 1 0.310521
0 1 0.300908
0.258824 1 0.268055
0.698573 1 0.22533
1 1 0.188418
1 1 0.164935
1 1 0.153124
1 1 0.152148
0 1 0.241184
0 1 0.287373
0 1 0.271199
0.223377 1 0.231342
0.658869 1 0.183124
1 1 0.141588
1 1 0.114092
1 1 0.0992447
1 1 0.095491
0 1 0.234211
0 1 0.277943
0 1 0.255726
0.204166 1 0.211444
0.636194 1 0.158846
1 1 0.114397
1 1 0.0845655
1 1 0.0682841
1 1 0.0624247
0 1 0.236576
0 1 0.279591
0 1 0.253391
0.198581 1 0.205661
0.628122 1 0.150729
1 1 0.104265
1 1 0.0731212
1 1 0.0564279
1 1 0.0513008
0 0 0.90869
0 0 0.88539
0.0365454 0 0.818112
0.2963 0 0.766186
0.693523 0 0.718257
1 0 0.678859
1 0 0.656474
1 0 0.647166
1 0 0.652049
0 0 0.940337
0 0 0.993606
0.104372 0 0.979461
0.434989 0 0.944289
0.870481 0 0.901534
1 0 0.870024
1 0 0.857008
1 0 0.858686
1 0 0.874556
0 0.076112 0.913954
0 0.103014 0.97171
0.0851148 0.0923323 0.964294
0.423407 0.0625162 0.934813
0.866178 0.0230716 0.897078
1 0 0.869215
1 0 0.858549
1 0 0.861479
1 0 0.87715
0 0.386099 0.85417
0 0.437568 0.913207
0.0315862 0.431296 0.909026
0.370977 0.402792 0.881209
0.816358 0.364355 0.845472
1 0.334081 0.817258
1 0.319493 0.804349
1 0.317449 0.803967
1 0.32781 0.815442
0 0.822934 0.785687
0 0.883909 0.8439
0 0.878782 0.839002
0.301946 0.847974 0.809598
0.74464 0.807767 0.771206
1 0.774777 0.739712
1 0.756619 0.72195
1 0.750042 0.716091
1 0.754467 0.720317
0 1 0.738582
0 1 0.794568
0 1 0.784649
0.243397 1 0.750256
0.682399 1 0.706737
1 1 0.66923
1 1 0.644572
1 1 0.633249
1 1 0.631861
0 1 0.720699
0 1 0.771588
0 1 0.754391
0.206058 1 0.713481
0.640635 1 0.663478
1 1 0.621241
1 1 0.592645
1 1 0.577951
1 1 0.573343
0 1 0.714336
0 1 0.762188
0 1 0.738613
0.185397 1 0.693111
0.616602 1 0.63859
1 1 0.592371
1 1 0.562417
1 1 0.545525
1 1 0.539849
0 1 0.716381
0 1 0.763165
0 1 0.735744
0.179126 1 0.686885
0.608209 1 0.629908
1 1 0.581491
1 1 0.550515
1 1 0.533608
1 1 0.527932
0 0 1
0 0 1
0.0181735 0 1
0.281315 0 1
0.678965 0 1
1 0 1
1 0 1
1 0 1
1 0 1
0 0 1
0 0 1
0.0912642 0 1
0.421729 0 1
0.858579 0 1
1 0 1
1 0 1
1 0 1
1 0 1
0 0.0623789 1
0 0.0896315 1
0.073106 0.0795605 1
0.411337 0.049073 1
0.855558 0.0105745 1
1 0 1
1 0 1
1 0 1
1 0 1
0 0.374166 1
0 0.426017 1
0.019913 0.420294 1
0.360189 0.391104 1
0.805554 0.352972 1
1 0.322301 1
1 0.306508 1
1 0.304891 1
1 0.315038 1
0 0.811353 1
0 0.872801 1
0 0.86685 1
0.290196 0.836408 1
0.733288 0.795453 1
1 0.761486 1
1 0.74197 1
1 0.735073 1
1 0.739528 1
0 1 1
0 1 1
0 1 1
0.230594 1 1
0.668498 1 1
1 1 1
1 1 1
1 1 1
1 1 1
0 1 1
0 1 1
0 1 1
0.191562 1 1
0.625498 1 1
1 1 1
1 1 1
1 1 1
1 1 1
0 1 1
0 1 1
0 1 1
0.169787 1 1
0.600397 1 1
1 1 1
1 1 1
1 1 0.99559
1 1 0.989822
0 1 1
0 1 1
0 1 1
0.162722 1 1
0.591043 1 1
0.995605 1 1
1 1 1
1 1 0.983902
1 1 0.977737
0 0 1
0 0 1
0.00593576 0 1
0.270649 0 1
0.669398 0 1
1 0 1
1 0 1
1 0 1
1 0 1
0 0 1
0 0 1
0.0828717 0 1
0.414588 0 1
0.852949 0 1
1 0 1
1 0 1
1 0 1
1 0 1
0 0.0530556 1
0 0.081529 1
0.0656901 0.071519 1
0.405798 0.0410773 1
0.850828 0.00228885 1
1 0 1
1 0 1
1 0 1
1 0 1
0 0.367407 1
0 0.419989 1
0.0125887 0.413214 1
0.354528 0.384573 1
0.80058 0.346487 1
1 0.31603 1
1 0.30016 1
1 0.298512 1
1 0.308248 1
0 0.806104 1
0 0.867216 1
0 0.86009 1
0.284062 0.829114 1
0.726848 0.788907 1
1 0.753979 1
1 0.734615 1
1 0.727184 1
1 0.730663 1
0 1 1
0 1 1
0 1 1
0.222889 1 1
0.660365 1 1
1 1 1
1 1 1
1 1 1
1 1 1
0 1 1
0 1 1
0 1 1
0.182269 1 1
0.615854 1 1
1 1 1
1 1 1
1 1 1
1 1 1
0 1 1
0 1 1
0 1 1
0.15935 1 1
0.589685 1 1
0.995697 1 1
1 1 1
1 1 1
1 1 1
0 1 1
0 1 1
0 1 1
0.151873 1 1
0.57995 1 1
0.984558 1 1
1 1 1
1 1 1
1 1 1
0 0 1
0 0 1
0 0 1
0.264286 0 1
0.664546 0 1
1 0 1
1 0 1
1 0 1
1 0 1
0 0 1
0 0 1
0.0791485 0 1
0.412299 0 1
0.851652 0 1
1 0 1
1 0 1
1 0 1
1 0 1
0 0.0483253 1
0 0.078294 1
0.0625925 0.0678874 1
0.404715 0.0379187 1
0.851087 0 1
1 0 1
1 0 1
1 0 1
1 0 1
0 0.365789 1
0 0.418936 1
0.00944533 0.412726 1
0.353887 0.383886 1
0.800153 0.345785 1
1 0.314519 1
1 0.29926 1
1 0.296971 1
1 0.306722 1
0 0.805447 1
0 0.86714 1
0 0.859495 1
0.282155 0.828016 1
0.725185 0.786648 1
1 0.751125 1
1 0.731243 1
1 0.72369 1
1 0.726253 1
0 1 1
0 1 1
0 1 1
0.219379 1 1
0.656825 1 1
1 1 1
1 1 1
1 1 1
1 1 1
0 1 1
0 1 1
0 1 1
0.177981 1 1
0.610498 1 1
1 1 1
1 1 1
1 1 1
1 1 1
0 1 1
0 1 1
0 1 1
0.153857 1 1
0.583383 1 1
0.989578 1 1
1 1 1
1 1 1
1 1 1
0 1 1
0 1 1
0 1 1
0.14612 1 1
0.573251 1 1
0.978454 1 1
1 1 1
1 1 1
1 1 1
0 0 1
0 0 1
0 0 1
0.261906 0 1
0.663798 0 1
1 0 1
1 0 1
1 0 1
1 0 1
0 0 1
0 0 1
0.0790875 0 1
0.41474 0 1
0.855589 0 1
1 0 1
1 0 1
1 0 1
1 0 1
0 0.0480964 1
0 0.0795148 1
0.0635843 0.0689708 1
0.408576 0.0391852 1
0.855497 0.000686656 1
1 0 1
1 0 1
1 0 1
1 0 1
0 0.368826 1
0 0.423011 1
0.0107118 0.416373 1
0.357107 0.387366 1
0.803937 0.349233 1
1 0.317479 1
1 0.302159 1
1 0.300252 1
1 0.309285 1
0 0.809522 1
0 0.871168 1
0 0.863371 1
0.284642 0.831724 1
0.72755 0.789227 1
1 0.753063 1
1 0.732662 1
1 0.724239 1
1 0.726604 1
0 1 1
0 1 1
0 1 1
0.220096 1 1
0.656687 1 1
1 1 1
1 1 1
1 1 1
1 1 1
0 1 1
0 1 1
0 1 1
0.177264 1 1
0.60911 1 1
1 1 1
1 1 1
1 1 1
1 1 1
0 1 1
0 1 1
0 1 1
0.152789 1 1
0.581415 1 1
0.987808 1 1
1 1 1
1 1 1
1 1 1
0 1 1
0 1 1
0 1 1
0.14403 1 1
0.571283 1 1
0.976364 1 1
1 1 1
1 1 1
1 1 1
