LUTS/PEZ6-a_1.2021-07-31 01-02-05.cube
TITLE "Generated by Resolve"
LUT_3D_SIZE 65
0 0 0
0 0 0
0 0 0
0 0 0
0 0 0
0 0 0
0 0 0
0 0 0
0 0 0
0 0 0
0 0 0
0.00944533 0 0
0.0214542 0 0
0.0354162 0 0
0.0511635 0 0
0.070985 0 0
0.0912947 0 0
0.114229 0 0
0.137896 0 0
0.166339 0 0
0.195666 0 0
0.228916 0 0
0.263172 0 0
0.301091 0 0
0.3393 0 0
0.379965 0 0
0.42153 0 0
0.465644 0 0
0.511254 0 0
0.559319 0 0
0.608881 0 0
0.658824 0 0
0.711681 0 0
0.764523 0 0
0.818265 0 0
0.871656 0 0
0.923995 0 0
0.976715 0 0
1 0 0
1 0 0
1 0 0
1 0 0
1 0 0
1 0 0
1 0 0
1 0 0
1 0 0
1 0 0
1 0 0
1 0 0
1 0 0
1 0 0
1 0 0
1 0 0
1 0 0
1 0 0
1 0 0
1 0 0
1 0 0
1 0 0
1 0 0
1 0 0
1 0 0
1 0 0
1 0 0
0 0 0
0 0 0
0 0 0
0 0 0
0 0 0
0 0 0
0 0 0
0 0 0
0 0 0
0 0 0
0 0 0
0.00926223 0 0
0.0213474 0 0
0.035172 0 0
0.0511635 0 0
0.0711376 0 0
0.0922255 0 0
0.115908 0 0
0.141024 0 0
0.170596 0 0
0.201495 0 0
0.235508 0 0
0.270924 0 0
0.308843 0 0
0.348577 0 0
0.390127 0 0
0.43505 0 0
0.481407 0 0
0.530831 0 0
0.581796 0 0
0.633509 0 0
0.686412 0 0
0.739879 0 0
0.794003 0 0
0.848112 0 0
0.900816 0 0
0.954284 0 0
1 0 0
1 0 0
1 0 0
1 0 0
1 0 0
1 0 0
1 0 0
1 0 0
1 0 0
1 0 0
1 0 0
1 0 0
1 0 0
1 0 0
1 0 0
1 0 0
1 0 0
1 0 0
1 0 0
1 0 0
1 0 0
1 0 0
1 0 0
1 0 0
1 0 0
1 0 0
1 0 0
1 0 0
0 0 0
0 0 0
0 0 0
0 0 0
0 0 0
0 0 0
0 0 0
0 0 0
0 0 0
0 0 0
0 0 0
0.00926223 0 0
0.0215763 0 0
0.0360113 0 0
0.0529793 0 0
0.0737926 0 0
0.0961471 0 0
0.120211 0 0
0.147082 0 0
0.176654 0 0
0.208865 0 0
0.243885 0 0
0.281178 0 0
0.321019 0 0
0.363821 0 0
0.408347 0 0
0.456626 0 0
0.50576 0 0
0.55726 0 0
0.608881 0 0
0.66128 0 0
0.714977 0 0
0.769009 0 0
0.82385 0 0
0.877638 0 0
0.931472 0 0
0.984558 0 0
1 0 0
1 0 0
1 0 0
1 0 0
1 0 0
1 0 0
1 0 0
1 0 0
1 0 0
1 0 0
1 0 0
1 0 0
1 0 0
1 0 0
1 0 0
1 0 0
1 0 0
1 0 0
1 0 0
1 0 0
1 0 0
1 0 0
1 0 0
1 0 0
1 0 0
1 0 0
1 0 0
1 0 0
0 0 0
0 0 0
0 0 0
0 0 0
0 0 0
0 0 0
0 0 0
0 0 0
0 0 0
0 0 0
0 0 0
0.0105135 0 0
0.0238499 0 0
0.0387579 0 0
0.0572671 0 0
0.0784161 0 0
0.101549 0 0
0.126177 0 0
0.154696 0 0
0.18584 0 0
0.221042 0 0
0.257649 0 0
0.298878 0 0
0.341405 0 0
0.386542 0 0
0.433768 0 0
0.481727 0 0
0.533227 0 0
0.584619 0 0
0.63772 0 0
0.691173 0 0
0.745007 0 0
0.800351 0 0
0.854444 0 0
0.909041 0 0
0.962509 0 0
1 0 0
1 0 0
1 0 0
1 0 0
1 0 0
1 0 0
1 0 0
1 0 0
1 0 0
1 0 0
1 0 0
1 0 0
1 0 0
1 0 0
1 0 0
1 0 0
1 0 0
1 0 0
1 0 0
1 0 0
1 0 0
1 0 0
1 0 0
1 0 0
1 0 0
1 0 0
1 0 0
1 0 0
1 0 0
0 0 0
0 0 0
0 0 0
0 0 0
0 0 0
0 0 0
0 0 0
0 0 0
0 0 0
0 0 0
0.00173953 0 0
0.012665 0 0
0.0269474 0 0
0.0419776 0 0
0.0622263 0 0
0.0838636 0 0
0.10901 0 0
0.135424 0 0
0.167239 0 0
0.201251 0 0
0.23856 0 0
0.278401 0 0
0.319646 0 0
0.364416 0 0
0.410269 0 0
0.458549 0 0
0.508507 0 0
0.560006 0 0
0.612757 0 0
0.665904 0 0
0.720104 0 0
0.775357 0 0
0.829831 0 0
0.885115 0 0
0.938949 0 0
0.993164 0 0
1 0 0
1 0 0
1 0 0
1 0 0
1 0 0
1 0 0
1 0 0
1 0 0
1 0 0
1 0 0
1 0 0
1 0 0
1 0 0
1 0 0
1 0 0
1 0 0
1 0 0
1 0 0
1 0 0
1 0 0
1 0 0
1 0 0
1 0 0
1 0 0
1 0 0
1 0 0
1 0 0
1 0 0
1 0 0
0 0 0
0 0 0
0 0 0
0 0 0
0 0 0
0 0 0
0 0 0
0 0 0
0 0 0
0 0 0
0.00248722 0 0
0.0137026 0 0
0.0288853 0 0
0.0448157 0 0
0.0673075 0 0
0.0910658 0 0
0.117952 0 0
0.147066 0 0
0.180011 0 0
0.215717 0 0
0.253544 0 0
0.294179 0 0
0.336919 0 0
0.38265 0 0
0.429267 0 0
0.478187 0 0
0.529458 0 0
0.581796 0 0
0.634913 0 0
0.688243 0 0
0.743542 0 0
0.798108 0 0
0.853712 0 0
0.909041 0 0
0.963256 0 0
1 0 0
1 0 0
1 0 0
1 0 0
1 0 0
1 0 0
1 0 0
1 0 0
1 0 0
1 0 0
1 0 0
1 0 0
1 0 0
1 0 0
1 0 0
1 0 0
1 0 0
1 0 0
1 0 0
1 0 0
1 0 0
1 0 0
1 0 0
1 0 0
1 0 0
1 0 0
1 0 0
1 0 0
1 0 0
1 0 0
0 0 0
0 0 0
0 0 0
0 0 0
0 0 0
0 0 0
0 0 0
0 0 0
0 0 0
0 0 0
0.00363165 0 0
0.0160067 0 0
0.0323491 0 0
0.0505226 0 0
0.0741436 0 0
0.099382 0 0
0.12607 0 0
0.157321 0 0
0.190051 0 0
0.227634 0 0
0.266529 0 0
0.307774 0 0
0.351324 0 0
0.39678 0 0
0.445472 0 0
0.49424 0 0
0.546426 0 0
0.599557 0 0
0.651972 0 0
0.707118 0 0
0.761761 0 0
0.817731 0 0
0.873381 0 0
0.928344 0 0
0.983307 0 0
1 0 0
1 0 0
1 0 0
1 0 0
1 0 0
1 0 0
1 0 0
1 0 0
1 0 0
1 0 0
1 0 0
1 0 0
1 0 0
1 0 0
1 0 0
1 0 0
1 0 0
1 0 0
1 0 0
1 0 0
1 0 0
1 0 0
1 0 0
1 0 0
1 0 0
1 0 0
1 0 0
1 0 0
1 0 0
1 0 0
0 0 0
0 0 0
0 0 0
0 0 0
0 0 0
0 0 0
0 0 0
0 0 0
0 0 0
0 0 0
0.00395209 0 0
0.0172274 0 0
0.0336004 0 0
0.0528573 0 0
0.0764782 0 0
0.101701 0 0
0.128939 0 0
0.160388 0 0
0.194064 0 0
0.231891 0 0
0.270924 0 0
0.312718 0 0
0.356405 0 0
0.402457 0 0
0.450629 0 0
0.500786 0 0
0.553323 0 0
0.60592 0 0
0.659388 0 0
0.714137 0 0
0.770031 0 0
0.826001 0 0
0.880903 0 0
0.936614 0 0
0.990845 0 0
1 0 0
1 0 0
1 0 0
1 0 0
1 0 0
1 0 0
1 0 0
1 0 0
1 0 0
1 0 0
1 0 0
1 0 0
1 0 0
1 0 0
1 0 0
1 0 0
1 0 0
1 0 0
1 0 0
1 0 0
1 0 0
1 0 0
1 0 0
1 0 0
1 0 0
1 0 0
1 0 0
1 0 0
1 0 0
1 0 0
0 0 0
0 0 0
0 0 0
0 0 0
0 0 0
0 0 0
0 0 0
0 0 0
0 0 0
0 0 0
0.0027924 0 0
0.0158846 0 0
0.0325933 0 0
0.0519417 0 0
0.0754253 0 0
0.101228 0 0
0.12813 0 0
0.160113 0 0
0.193927 0 0
0.23154 0 0
0.271199 0 0
0.31249 0 0
0.356847 0 0
0.40325 0 0
0.451881 0 0
0.502556 0 0
0.554437 0 0
0.607797 0 0
0.660609 0 0
0.716167 0 0
0.772122 0 0
0.82739 0 0
0.883421 0 0
0.938399 0 0
0.993744 0 0
1 0 0
1 0 0
1 0 0
1 0 0
1 0 0
1 0 0
1 0 0
1 0 0
1 0 0
1 0 0
1 0 0
1 0 0
1 0 0
1 0 0
1 0 0
1 0 0
1 0 0
1 0 0
1 0 0
1 0 0
1 0 0
1 0 0
1 0 0
1 0 0
1 0 0
1 0 0
1 0 0
1 0 0
1 0 0
1 0 0
0 0 0
0 0 0
0 0 0
0 0 0
0 0 0
0 0 0
0 0 0
0 0 0
0 0 0
0 0 0
0.00138857 0 0
0.0145571 0 0
0.0313726 0 0
0.0504616 0 0
0.0742657 0 0
0.0997635 0 0
0.127199 0 0
0.159258 0 0
0.192905 0 0
0.230991 0 0
0.270191 0 0
0.312291 0 0
0.356741 0 0
0.402579 0 0
0.452186 0 0
0.50193 0 0
0.554818 0 0
0.607553 0 0
0.661387 0 0
0.717403 0 0
0.772305 0 0
0.829023 0 0
0.88397 0 0
0.940047 0 0
0.995377 0 0
1 0 0
1 0 0
1 0 0
1 0 0
1 0 0
1 0 0
1 0 0
1 0 0
1 0 0
1 0 0
1 0 0
1 0 0
1 0 0
1 0 0
1 0 0
1 0 0
1 0 0
1 0 0
1 0 0
1 0 0
1 0 0
1 0 0
1 0 0
1 0 0
1 0 0
1 0 0
1 0 0
1 0 0
1 0 0
1 0 0
0 0 0
0 0 0
0 0 0
0 0 0
0 0 0
0 0.000213626 0
0 0.0015259 0
0 0.00163272 0
0 0.00112917 0
0 0.00047303 0
0 0 0
0.0127413 0 0
0.0292363 0 0
0.0486915 0 0
0.0721904 0 0
0.0981765 0 0
0.125612 0 0
0.157549 0 0
0.191699 0 0
0.229328 0 0
0.269368 0 0
0.311467 0 0
0.355734 0 0
0.402289 0 0
0.45095 0 0
0.501778 0 0
0.554665 0 0
0.607813 0 0
0.661692 0 0
0.717052 0 0
0.773068 0 0
0.829084 0 0
0.885115 0 0
0.940826 0 0
0.995453 0 0
1 0 0
1 0 0
1 0 0
1 0 0
1 0 0
1 0 0
1 0 0
1 0 0
1 0 0
1 0 0
1 0 0
1 0 0
1 0 0
1 0 0
1 0 0
1 0 0
1 0 0
1 0 0
1 0 0
1 0 0
1 0 0
1 0 0
1 0 0
1 0 0
1 0 0
1 0 0
1 0 0
1 0 0
1 0 0
1 0 0
0 0.00234989 0
0 0.0043183 0
0 0.00656138 0
0 0.0087892 0
0 0.0107576 0
0 0.0127108 0
0 0.0141604 0
0 0.0148318 0
0 0.0142672 0
0 0.0135348 0
0 0.0125887 0
0.0103151 0.0112001 0
0.0271153 0.00984207 0
0.0466011 0.00801099 0
0.0702525 0.00570687 0
0.0962539 0.00343328 0
0.123354 0.000701915 0
0.155901 0 0
0.18967 0 0
0.227756 0 0
0.267842 0 0
0.309712 0 0
0.354589 0 0
0.40061 0 0
0.450538 0 0
0.501472 0 0
0.553704 0 0
0.607523 0 0
0.660792 0 0
0.717205 0 0
0.772549 0 0
0.828901 0 0
0.885328 0 0
0.940673 0 0
0.995987 0 0
1 0 0
1 0 0
1 0 0
1 0 0
1 0 0
1 0 0
1 0 0
1 0 0
1 0 0
1 0 0
1 0 0
1 0 0
1 0 0
1 0 0
1 0 0
1 0 0
1 0 0
1 0 0
1 0 0
1 0 0
1 0 0
1 0 0
1 0 0
1 0 0
1 0 0
1 0 0
1 0 0
1 0 0
1 0 0
1 0 0
0 0.0151827 0
0 0.0180362 0
0 0.021149 0
0 0.0238804 0
0 0.0268711 0
0 0.0288243 0
0 0.0306249 0
0 0.0311894 0
0 0.0306249 0
0 0.0301366 0
0 0.0289464 0
0.00767529 0.0279088 0
0.0243687 0.0264439 0
0.0438087 0.0246128 0
0.0677501 0.0225223 0
0.093431 0.0200351 0
0.120882 0.0175174 0
0.153048 0.0143435 0
0.187228 0.0112306 0
0.225834 0.00772107 0
0.265461 0.00390631 0
0.30782 7.62951e-05 0
0.352193 0 0
0.399176 0 0
0.448783 0 0
0.499458 0 0
0.552346 0 0
0.605554 0 0
0.659892 0 0
0.715969 0 0
0.771725 0 0
0.828412 0 0
0.884123 0 0
0.940215 0 0
0.995193 0 0
1 0 0
1 0 0
1 0 0
1 0 0
1 0 0
1 0 0
1 0 0
1 0 0
1 0 0
1 0 0
1 0 0
1 0 0
1 0 0
1 0 0
1 0 0
1 0 0
1 0 0
1 0 0
1 0 0
1 0 0
1 0 0
1 0 0
1 0 0
1 0 0
1 0 0
1 0 0
1 0 0
1 0 0
1 0 0
1 0 0
0 0.0316472 0
0 0.0346227 0
0 0.0373693 0
0 0.0404669 0
0 0.043534 0
0 0.0467689 0
0 0.0493019 0
0 0.0499733 0
0 0.0498054 0
0 0.0490883 0
0 0.0483406 0
0.00437934 0.0471809 0
0.021088 0.045716 0
0.0407111 0.0441596 0
0.06421 0.0417792 0
0.0903487 0.0394903 0
0.1178 0.0369116 0
0.150179 0.033753 0
0.184634 0.0307317 0
0.222538 0.0269169 0
0.262943 0.0232242 0
0.304845 0.0188907 0
0.350057 0.0147707 0
0.396796 0.0103456 0
0.446128 0.00553903 0
0.497475 0.000885023 0
0.549737 0 0
0.603967 0 0
0.658381 0 0
0.714107 0 0
0.770596 0 0
0.826612 0 0
0.883009 0 0
0.938399 0 0
0.994049 0 0
1 0 0
1 0 0
1 0 0
1 0 0
1 0 0
1 0 0
1 0 0
1 0 0
1 0 0
1 0 0
1 0 0
1 0 0
1 0 0
1 0 0
1 0 0
1 0 0
1 0 0
1 0 0
1 0 0
1 0 0
