LUTS/PEZ6-a_1.2021-07-31 01-02-05.cube
TITLE "Generated by Resolve"
LUT_3D_SIZE 5
0 0 0
0.0912947 0 0
0.711681 0 0
1 0 0
1 0 0
0 0.0986801 0
0.105043 0.113939 0
0.87425 0.0443427 0
1 0 0
1 0 0
0 0.827024 0
0 0.885756 0
0.755749 0.819806 0
1 0.772015 0
1 0.775128 0
0 1 0
0 1 0
0.665782 1 0
1 1 0
1 1 0
0 1 0
0 1 0
0.640131 1 0
1 1 0
1 1 0
0 0 0.136629
0.0753033 0 0.0779889
0.722957 0 0
1 0 0
1 0 0
0 0.103563 0.0988785
0.109911 0.119493 0.113832
0.890227 0.049424 0.0469368
1 0 0
1 0 0
0 0.846845 0
0 0.90425 0
0.76968 0.834913 0
1 0.785657 0
1 0.787717 0
0 1 0
0 1 0
0.673381 1 0
1 1 0
1 1 0
0 1 0
0 1 0
0.645457 1 0
1 1 0
1 1 0
0 0 0.90869
0.0365454 0 0.818112
0.693523 0 0.718257
1 0 0.656474
1 0 0.652049
0 0.076112 0.913954
0.0851148 0.0923323 0.964294
0.866178 0.0230716 0.897078
1 0 0.858549
1 0 0.87715
0 0.822934 0.785687
0 0.878782 0.839002
0.74464 0.807767 0.771206
1 0.756619 0.72195
1 0.754467 0.720317
0 1 0.720699
0 1 0.754391
0.640635 1 0.663478
1 1 0.592645
1 1 0.573343
0 1 0.716381
0 1 0.735744
0.608209 1 0.629908
1 1 0.550515
1 1 0.527932
0 0 1
0.00593576 0 1
0.669398 0 1
1 0 1
1 0 1
0 0.0530556 1
0.0656901 0.071519 1
0.850828 0.00228885 1
1 0 1
1 0 1
0 0.806104 1
0 0.86009 1
0.726848 0.788907 1
1 0.734615 1
1 0.730663 1
0 1 1
0 1 1
0.615854 1 1
1 1 1
1 1 1
0 1 1
0 1 1
0.57995 1 1
1 1 1
1 1 1
0 0 1
0 0 1
0.663798 0 1
1 0 1
1 0 1
0 0.0480964 1
0.0635843 0.0689708 1
0.855497 0.000686656 1
1 0 1
1 0 1
0 0.809522 1
0 0.863371 1
0.72755 0.789227 1
1 0.732662 1
1 0.726604 1
0 1 1
0 1 1
0.60911 1 1
1 1 1
1 1 1
0 1 1
0 1 1
0.571283 1 1
1 1 1
1 1 1
